<?xml version="1.0" encoding="UTF-8"?>
<map version="1.10" tiledversion="1.11.2" orientation="orthogonal" renderorder="right-down" width="64" height="64" tilewidth="16" tileheight="16" infinite="0" nextlayerid="4" nextobjectid="18">
 <tileset firstgid="1" name="1_terrain" tilewidth="16" tileheight="16" tilecount="1440" columns="30">
  <image source="dist/tilesets/1_terrain.png" width="480" height="768"/>
 </tileset>
 <tileset firstgid="1441" name="3_plants" tilewidth="16" tileheight="16" tilecount="240" columns="30">
  <image source="dist/tilesets/3_plants.png" width="480" height="128"/>
 </tileset>
 <layer id="1" name="bot" width="64" height="64">
  <data encoding="csv">
63,93,94,94,94,64,93,64,93,94,63,63,63,64,94,63,93,93,93,94,94,63,94,93,93,94,64,63,94,64,64,94,63,63,93,64,64,94,94,94,64,94,93,93,94,64,64,63,94,93,93,93,93,93,63,63,63,63,93,64,94,63,64,93,
93,64,64,94,94,63,64,64,64,63,64,94,63,93,64,94,93,63,63,63,93,93,94,94,94,93,64,63,94,94,63,63,64,64,63,64,93,63,94,93,93,93,94,93,63,63,93,64,63,94,94,64,93,64,64,64,63,63,93,94,63,93,94,93,
63,63,63,64,93,94,63,64,63,64,94,63,94,64,64,93,64,94,93,64,63,93,93,94,94,64,63,93,93,93,94,93,94,64,64,93,63,93,93,64,63,94,94,93,93,94,93,64,93,94,93,93,64,94,64,64,93,63,64,94,93,63,64,94,
94,93,94,64,63,63,94,94,63,93,64,93,63,94,94,63,64,93,64,93,93,63,64,94,63,93,63,94,93,63,93,63,94,64,64,93,94,94,94,94,94,63,93,94,93,63,64,93,94,64,64,64,63,93,64,64,64,94,94,63,63,63,63,94,
94,94,93,93,93,63,93,93,63,93,64,64,64,93,94,94,63,63,94,63,64,63,94,93,63,94,94,63,93,93,94,94,93,94,63,93,64,94,94,63,64,93,64,94,93,63,94,63,94,94,94,64,93,64,93,64,93,63,94,93,93,63,64,63,
94,93,93,93,63,64,94,94,94,94,93,93,93,94,94,94,64,63,94,63,63,63,94,64,64,93,93,93,63,94,93,64,93,64,63,94,63,94,93,94,64,94,64,94,94,64,94,94,64,63,94,94,63,93,93,94,63,93,64,93,63,93,93,63,
63,93,93,93,94,94,64,64,63,94,94,93,93,93,94,64,94,64,93,93,64,93,63,63,64,64,94,93,94,93,63,64,63,63,93,64,93,94,64,63,64,93,64,64,63,64,63,63,93,94,63,64,63,64,63,94,93,93,93,93,63,64,94,94,
63,93,94,63,64,64,94,64,93,94,94,94,94,64,93,94,94,64,94,94,93,64,94,94,94,63,64,94,63,94,93,63,94,64,93,64,64,63,94,93,64,64,94,94,63,63,64,94,93,63,64,94,63,94,94,93,94,93,63,94,64,93,93,93,
63,63,94,94,94,64,93,94,63,64,94,94,93,64,63,63,94,63,63,64,64,64,63,94,63,64,94,94,93,64,93,93,94,64,94,93,63,64,64,64,64,63,64,63,63,64,64,94,94,63,93,64,94,64,93,93,93,93,63,63,94,64,93,93,
94,63,63,63,63,94,63,94,64,94,93,94,63,63,93,94,64,64,63,63,93,63,94,93,63,63,94,94,64,93,63,64,63,93,93,93,64,93,94,93,64,94,94,63,94,64,93,64,94,94,93,63,64,93,94,64,64,64,64,93,94,64,94,93,
64,64,63,94,63,64,94,63,93,94,63,63,64,94,64,63,64,94,63,64,64,64,63,63,93,64,64,93,63,63,63,63,94,64,93,94,64,93,64,63,64,63,94,64,94,63,63,63,64,64,63,93,64,93,64,64,94,93,63,64,64,94,93,94,
93,94,93,64,63,94,63,64,64,63,93,64,64,64,94,93,94,64,63,94,64,63,94,93,64,93,94,63,64,64,94,64,93,63,93,93,94,93,63,93,94,94,94,63,64,64,64,64,63,94,64,94,93,94,93,93,93,93,93,93,93,63,94,63,
93,93,63,94,94,63,94,94,63,93,93,63,63,94,63,93,94,93,94,94,94,94,93,94,93,94,94,63,94,93,63,93,64,63,93,94,93,94,64,63,93,64,63,63,94,63,93,64,93,63,93,63,64,63,63,64,64,93,63,94,94,94,64,64,
93,64,63,94,93,64,93,64,63,93,93,64,93,64,93,63,63,93,94,64,64,93,63,93,63,64,64,63,64,94,63,94,64,93,64,63,94,93,64,93,94,64,93,63,94,93,94,93,93,63,93,94,94,64,64,63,63,93,94,93,63,63,63,93,
93,63,63,63,93,94,63,63,63,64,64,64,93,93,63,94,94,94,93,93,93,93,63,93,93,63,64,93,93,93,93,94,63,94,93,64,63,63,93,64,94,93,94,93,93,93,63,64,64,94,94,64,93,64,64,93,93,93,93,94,93,63,93,63,
94,93,94,93,64,63,64,94,94,94,64,94,64,93,63,94,63,94,93,93,93,94,63,64,64,93,63,64,94,64,64,64,64,93,94,63,63,63,64,63,94,93,63,94,63,64,93,93,93,94,63,94,93,93,93,64,93,63,94,63,63,94,94,64,
63,64,94,64,94,94,64,94,94,93,63,64,93,64,63,64,94,64,93,63,63,64,63,63,93,93,93,94,63,64,63,94,93,93,64,94,64,94,63,63,64,64,64,64,94,93,94,64,64,93,64,94,64,94,64,63,63,63,94,64,93,64,63,64,
63,94,63,93,93,63,64,93,64,64,93,94,93,94,63,64,63,94,63,64,93,93,94,94,94,93,64,64,94,94,63,94,93,94,94,93,64,93,63,64,93,93,63,93,93,63,63,63,64,94,94,93,63,94,93,63,94,64,64,93,94,93,93,64,
93,93,64,93,93,64,93,93,63,64,64,64,64,63,63,63,63,64,64,63,94,64,64,64,94,63,64,93,93,94,93,93,64,64,63,64,64,63,93,94,93,63,64,94,63,63,63,94,94,64,64,94,63,94,94,93,94,63,63,94,94,93,94,63,
63,93,64,63,94,63,94,93,64,63,64,93,93,63,93,64,64,64,93,93,93,93,63,93,64,63,64,63,93,64,64,63,64,63,93,63,93,94,93,63,93,93,93,94,93,64,93,93,63,63,64,94,94,64,94,93,94,64,64,94,93,94,64,63,
63,64,63,94,94,94,93,94,63,93,93,94,63,94,64,63,93,64,93,93,63,64,94,63,63,93,63,64,64,63,64,64,63,63,94,93,94,93,63,94,63,64,64,63,63,63,63,63,94,93,63,64,64,64,63,63,93,64,63,63,63,94,64,93,
64,94,63,94,94,94,63,63,94,64,64,63,93,94,93,93,64,63,64,93,93,63,63,93,64,63,94,64,93,64,94,94,63,94,64,64,63,64,93,64,94,94,63,64,94,94,93,64,94,94,93,63,94,93,63,64,94,63,94,63,94,63,93,94,
94,64,94,64,93,93,64,93,64,93,94,94,94,64,93,93,64,63,93,93,94,93,64,93,93,93,64,63,94,64,93,93,93,64,93,64,64,94,63,63,63,64,64,93,64,93,93,93,94,93,63,94,94,64,93,94,64,63,63,93,94,64,93,63,
64,94,64,93,94,64,64,64,64,93,94,94,63,64,93,63,94,64,94,94,94,64,94,64,64,64,64,64,63,93,64,63,64,94,64,63,64,94,94,63,64,93,93,94,63,93,94,64,93,64,93,64,94,93,94,64,93,64,94,94,93,63,64,63,
93,64,63,94,93,94,63,93,63,94,93,63,93,94,93,63,63,64,94,93,93,63,93,93,93,64,63,64,94,93,63,94,63,94,64,63,94,94,94,63,63,94,94,94,94,63,63,94,64,64,64,64,93,63,64,63,94,63,64,93,94,63,93,94,
94,63,94,94,94,94,63,63,63,63,63,63,63,93,93,93,64,63,64,94,64,93,94,64,63,64,93,93,64,63,63,93,63,93,63,94,64,63,94,63,63,94,94,64,94,63,93,64,63,64,64,64,94,64,94,93,64,64,93,63,64,64,94,64,
63,63,64,63,93,94,63,64,64,94,93,93,93,63,64,93,94,63,64,94,63,93,94,93,63,94,94,63,63,64,93,64,93,94,94,93,94,94,64,93,93,94,94,64,94,63,64,93,64,63,94,64,63,93,93,63,63,64,93,93,93,63,93,63,
63,64,93,94,64,94,93,93,64,94,64,63,63,64,63,93,63,94,64,64,93,63,94,63,63,64,94,64,63,94,93,63,63,94,63,64,93,64,64,64,93,94,94,94,64,64,64,63,63,93,64,64,64,64,64,63,64,63,93,93,64,63,94,64,
94,63,93,93,94,64,63,64,63,64,64,64,94,93,63,64,93,94,63,64,63,63,63,64,94,64,93,63,63,94,64,64,94,94,93,64,63,93,93,64,93,64,64,94,64,64,93,94,94,94,94,63,93,63,93,64,64,64,64,93,64,94,93,64,
93,94,93,63,94,63,94,94,94,93,63,64,64,93,64,64,63,94,93,64,93,63,64,64,93,63,63,64,93,93,63,94,63,93,64,64,93,94,93,94,63,63,93,64,93,94,94,94,64,93,63,93,94,93,64,63,63,94,93,63,63,63,63,63,
63,63,64,64,94,63,93,63,94,93,63,64,94,93,93,94,94,63,63,63,63,93,63,93,64,63,93,64,63,64,94,93,94,63,64,63,64,63,94,63,94,94,63,64,63,64,93,93,64,94,63,63,93,93,64,64,63,63,93,64,94,94,64,94,
64,63,93,94,63,64,64,93,63,63,64,94,63,64,63,94,93,64,93,64,93,63,94,64,94,63,93,93,64,64,64,64,93,93,64,93,93,64,63,93,93,93,63,93,93,64,64,63,64,93,63,63,64,94,64,93,64,64,93,64,63,64,63,64,
93,63,63,64,63,94,64,93,64,63,93,64,93,64,64,63,93,94,63,94,94,63,63,63,94,63,94,63,63,94,64,94,64,63,93,93,63,63,93,94,93,93,94,64,93,64,93,94,63,63,64,93,94,94,94,64,94,64,63,94,94,93,63,63,
64,93,93,93,93,94,93,63,93,63,63,63,64,93,94,94,64,63,64,94,94,64,63,64,64,93,63,93,64,64,63,93,93,93,94,93,93,64,94,93,93,93,63,63,93,93,94,93,63,63,93,94,63,93,93,64,64,64,94,64,93,93,64,63,
93,64,64,94,94,63,64,93,63,63,64,93,94,63,64,64,93,94,63,94,63,64,64,64,94,93,64,64,63,93,94,64,63,93,64,94,64,93,94,93,64,93,63,93,93,94,64,93,64,63,94,94,63,94,94,94,93,63,63,64,94,64,94,94,
64,63,94,64,63,94,63,94,94,94,93,64,94,63,93,94,63,94,64,93,93,64,64,64,63,63,93,93,93,63,94,93,94,63,94,64,94,94,64,94,63,63,94,93,63,63,63,64,94,93,63,63,94,64,93,94,64,93,93,93,93,93,93,63,
64,93,64,64,93,63,63,94,94,93,63,93,63,63,64,64,93,64,64,94,63,93,64,64,64,64,93,63,63,93,93,93,64,64,64,63,93,63,64,93,64,94,94,63,93,94,63,94,93,63,94,63,63,94,64,63,64,64,94,93,94,94,93,63,
64,63,94,64,64,93,94,63,64,94,93,64,63,63,94,64,94,94,93,64,64,64,93,63,63,64,64,93,63,64,64,93,94,64,94,64,63,64,93,93,94,94,63,93,64,63,94,93,93,64,94,93,94,93,64,93,94,63,63,93,64,64,64,64,
93,94,94,93,63,93,93,94,63,94,93,63,94,94,94,94,93,63,64,93,94,93,64,63,64,63,64,94,64,64,93,93,94,93,64,93,64,64,93,93,94,93,93,94,94,63,64,93,63,64,63,93,63,64,93,94,63,94,94,64,93,64,63,94,
64,64,63,63,63,94,64,64,63,63,93,63,94,94,93,63,64,93,93,64,64,63,63,93,94,93,63,63,93,63,63,64,93,93,93,64,63,63,94,63,63,94,64,94,64,64,93,94,63,63,64,94,63,64,63,64,93,93,93,94,63,64,64,94,
93,93,93,94,93,64,93,94,94,64,93,64,63,64,94,94,94,64,64,63,94,93,94,94,64,93,64,64,63,94,94,94,63,63,64,64,93,94,93,63,93,64,64,93,93,93,93,94,93,63,94,94,64,64,63,94,64,63,63,63,63,94,93,64,
63,63,63,64,94,93,63,63,93,63,64,64,94,63,64,93,64,93,93,63,93,64,63,93,64,63,63,63,94,63,64,63,94,94,93,64,94,63,64,93,64,63,94,93,93,63,64,64,94,94,64,93,64,64,94,93,64,93,93,64,64,63,93,94,
63,93,63,64,93,63,94,93,64,63,64,94,94,93,64,94,94,64,94,64,63,64,64,63,93,63,93,94,63,94,93,93,94,64,64,93,63,93,63,93,94,63,93,93,63,94,63,94,63,64,94,93,63,63,93,63,94,93,63,94,93,63,93,94,
64,63,94,94,63,93,93,63,93,63,63,64,63,94,93,63,64,93,94,64,93,64,63,63,94,93,94,64,94,93,94,93,94,93,93,93,93,63,63,64,64,64,64,63,94,94,93,64,63,63,93,93,63,94,63,94,64,64,64,93,94,93,93,64,
94,94,93,63,93,64,63,93,94,93,63,63,63,64,64,93,64,94,63,64,63,64,94,94,64,64,63,63,93,93,63,93,94,94,93,64,93,93,64,94,93,63,94,63,93,64,64,94,64,64,64,64,64,94,93,93,93,94,63,64,93,94,64,64,
63,64,93,94,64,94,94,63,63,93,63,63,63,63,64,63,93,94,64,64,93,94,64,93,63,93,93,64,94,63,63,93,63,94,63,63,94,93,64,93,94,64,94,93,94,64,63,64,63,63,94,93,93,93,94,94,64,64,63,64,63,64,94,93,
93,64,93,63,63,64,64,64,94,94,94,94,64,64,64,93,63,94,64,94,93,64,64,64,64,64,63,94,93,94,94,63,63,64,64,63,64,93,93,63,64,64,94,64,63,93,93,94,63,64,94,64,63,94,94,94,64,93,63,93,94,93,94,93,
93,93,93,64,93,93,64,93,94,93,64,94,64,94,93,63,93,64,64,64,64,64,64,94,64,63,94,93,63,63,93,64,93,94,63,63,63,63,63,63,94,94,94,94,64,64,64,94,64,63,94,94,94,63,94,63,93,63,93,93,64,93,93,63,
93,93,93,93,64,94,63,93,64,94,63,93,64,93,64,93,63,94,64,94,93,63,64,93,93,64,94,64,64,94,64,94,64,94,63,63,94,93,93,64,94,94,64,94,93,64,64,64,93,94,93,93,64,94,63,93,63,94,64,64,94,93,94,64,
93,94,64,93,64,63,94,93,93,64,93,94,63,63,63,93,63,93,93,93,63,93,94,64,94,63,64,63,63,64,93,94,64,94,63,63,63,63,64,63,63,64,94,64,63,94,94,63,63,93,64,94,94,93,94,63,94,64,63,64,64,93,64,63,
64,63,93,94,64,63,63,94,94,63,94,94,64,94,64,63,94,63,94,93,64,64,64,64,64,93,63,63,93,63,64,93,94,94,63,94,93,63,94,64,93,64,94,64,63,94,93,63,64,63,63,64,94,64,64,64,63,93,93,94,94,93,93,64,
94,63,63,94,64,93,63,93,93,64,94,64,94,63,94,94,63,93,64,93,93,64,94,93,63,93,93,93,94,93,94,94,64,94,64,64,93,64,93,63,94,93,64,63,94,93,93,63,93,63,94,63,64,64,64,94,64,64,64,94,64,94,94,94,
64,93,63,93,94,94,64,94,64,93,93,63,94,93,94,94,93,93,94,94,93,64,64,94,93,93,93,63,63,63,94,63,94,93,64,63,94,64,64,64,64,63,63,63,93,64,94,63,94,93,63,63,64,64,93,93,94,64,64,63,93,94,93,94,
94,64,93,94,63,63,93,63,64,94,93,93,63,94,64,64,94,93,93,64,64,64,93,64,93,63,93,94,64,64,64,64,94,94,63,94,63,64,94,63,63,64,94,94,93,94,63,64,93,63,94,64,93,93,94,93,93,64,93,64,94,63,93,93,
63,64,93,64,63,64,63,94,63,64,63,93,93,93,64,64,63,64,63,93,64,93,63,93,94,64,63,93,63,94,93,63,93,93,64,93,94,94,63,93,93,63,93,64,93,94,64,64,94,64,64,93,64,94,63,63,64,63,64,64,93,63,93,94,
94,64,64,94,63,94,94,63,63,64,64,93,94,94,94,93,63,93,64,94,63,94,93,64,64,63,64,93,93,93,63,63,64,93,94,64,94,63,64,93,63,94,64,94,94,64,94,63,94,63,93,93,94,94,94,64,94,93,93,63,93,94,64,64,
64,93,93,94,93,64,94,93,63,93,93,93,94,94,63,93,93,63,93,64,94,94,64,93,93,94,94,63,93,63,93,63,93,64,64,93,94,64,64,94,93,63,94,94,93,64,64,93,64,64,94,63,64,94,94,63,64,64,64,93,64,64,93,63,
63,63,93,93,94,63,94,63,94,64,63,64,63,94,93,64,64,94,64,63,94,64,93,63,93,93,94,93,94,64,63,63,63,94,63,63,64,93,93,64,93,64,63,63,63,94,63,93,93,93,64,94,64,93,63,93,64,94,93,63,63,93,63,64,
94,64,63,93,93,94,63,94,64,93,94,93,64,94,93,64,94,94,94,93,64,94,93,94,93,93,93,64,93,64,64,93,93,93,64,63,63,94,64,64,93,64,93,93,94,93,94,63,63,63,64,63,93,94,93,63,63,63,64,63,93,94,94,94,
63,93,94,63,93,64,94,64,94,63,93,93,64,94,63,94,94,94,64,64,63,64,63,64,64,93,93,64,94,63,94,64,63,63,93,94,94,94,63,63,63,63,94,64,93,63,93,94,93,94,94,94,94,63,63,94,94,63,64,93,93,93,93,64,
94,93,94,93,64,64,93,63,94,64,93,94,63,63,93,64,93,63,93,64,64,93,64,94,94,64,94,63,93,93,63,63,64,94,93,64,94,63,64,93,63,93,64,93,64,94,63,64,94,63,64,93,63,93,93,93,94,63,93,63,94,64,94,63,
93,94,63,63,93,93,63,63,93,93,93,63,63,93,63,94,94,93,93,94,94,93,63,64,94,63,63,63,63,93,63,63,93,93,94,64,93,94,94,64,94,94,93,64,64,93,64,64,64,63,93,64,64,93,64,94,64,93,94,64,63,64,63,93,
93,94,94,94,93,63,93,94,63,63,94,93,63,63,63,94,63,63,93,64,94,93,94,94,93,64,64,63,63,94,64,94,63,93,93,93,93,63,63,94,93,93,94,93,64,63,93,64,94,93,94,93,64,93,64,63,93,64,94,93,63,63,94,93,
64,93,64,63,94,93,93,93,64,64,63,63,63,94,93,94,63,64,64,94,64,93,63,64,94,63,63,93,63,64,93,93,94,94,63,63,94,63,64,63,63,63,64,64,94,63,63,93,93,94,63,63,63,94,94,93,64,94,94,64,63,94,64,94
</data>
 </layer>
 <layer id="2" name="top" width="64" height="64">
  <data encoding="csv">
0,0,0,0,0,0,0,0,0,0,0,0,0,0,0,0,0,0,0,0,0,0,0,0,0,0,0,0,0,0,0,0,0,0,0,0,0,0,0,0,0,0,0,0,0,0,0,0,0,0,0,0,0,0,0,0,0,0,0,0,0,0,0,0,
0,0,0,0,0,0,0,0,0,0,0,0,0,0,0,0,0,0,0,0,0,0,0,0,0,0,0,0,0,0,0,0,0,0,0,0,0,0,0,0,0,0,0,0,0,0,0,0,0,0,0,0,0,0,0,0,0,0,0,0,0,0,0,0,
0,0,0,0,0,0,0,0,0,0,0,0,0,0,0,0,0,0,0,0,0,0,0,0,0,0,0,0,0,0,0,0,0,0,0,0,0,0,0,0,0,0,0,0,0,0,0,0,0,0,0,0,0,0,0,0,0,0,0,0,0,0,0,0,
0,0,0,0,0,0,0,0,0,0,0,0,0,0,0,0,0,0,0,0,0,0,0,0,0,0,0,0,0,0,0,0,0,0,0,0,0,0,0,0,0,0,0,0,0,0,0,0,0,0,0,0,0,0,0,0,0,0,0,0,0,0,0,0,
0,0,0,0,0,0,0,0,0,0,0,0,0,0,0,0,0,0,0,0,0,0,0,0,0,0,0,0,0,0,0,0,0,0,0,0,0,0,0,0,0,0,0,0,0,0,0,0,0,0,0,0,0,0,0,0,0,0,0,0,0,0,0,0,
0,0,0,0,0,0,0,0,0,0,0,0,0,0,0,0,0,0,0,0,0,0,0,0,0,0,0,0,0,0,0,0,0,0,0,0,0,0,0,0,0,0,0,0,0,0,0,0,0,0,0,0,0,0,0,0,0,0,0,0,0,0,0,0,
0,0,0,0,0,0,0,0,0,0,0,0,0,0,0,0,0,0,0,0,0,0,0,0,0,0,0,0,0,0,0,0,0,0,0,0,0,0,0,0,0,0,0,0,0,0,0,0,0,0,0,0,0,0,0,0,0,0,0,0,0,0,0,0,
0,0,0,0,0,0,0,0,0,0,0,0,0,0,0,0,0,0,0,0,0,0,0,0,0,0,0,0,0,0,0,0,0,0,0,0,0,0,0,0,0,0,0,0,0,0,0,0,0,0,0,0,0,0,0,0,0,0,0,0,0,0,0,0,
0,0,0,0,0,0,0,0,0,0,0,0,0,0,0,0,0,0,0,0,0,0,0,0,0,0,0,0,0,0,0,0,0,0,0,0,0,0,0,0,0,0,0,0,0,0,0,0,0,0,0,0,0,0,0,0,0,0,0,0,0,0,0,0,
0,0,0,0,0,0,0,0,0,0,0,0,0,0,0,0,0,0,0,0,0,0,0,0,0,0,0,0,0,0,0,0,0,0,0,0,0,0,0,0,0,0,1577,1578,1579,1580,0,0,0,0,0,0,0,0,0,0,0,0,0,0,0,0,0,0,
0,0,0,0,0,0,0,0,0,0,0,0,0,0,0,0,0,0,0,0,0,0,0,0,0,0,0,0,0,0,0,0,0,0,0,0,0,0,0,0,0,0,1607,1608,1609,1610,0,0,0,0,0,0,0,0,0,0,0,0,0,0,0,0,0,0,
0,0,0,0,0,0,0,0,0,0,0,0,0,0,0,0,0,0,0,0,0,0,0,0,0,0,0,0,0,0,0,0,0,0,0,0,0,0,0,0,0,0,1637,1638,1639,1640,0,0,0,0,0,0,0,0,0,0,0,0,0,0,0,0,0,0,
0,0,0,0,0,0,0,0,0,0,0,0,0,0,0,0,0,0,0,0,0,0,0,0,0,0,0,0,0,0,0,0,0,0,0,0,0,0,0,0,0,0,1667,1668,1669,1670,0,0,0,0,0,0,0,0,0,0,0,0,0,0,0,0,0,0,
0,0,0,0,0,0,0,0,0,0,0,0,0,0,0,0,0,0,0,0,0,0,0,0,0,0,0,0,0,0,0,0,0,0,0,0,0,0,0,0,0,0,0,0,0,0,0,0,0,0,0,0,0,0,0,0,0,0,0,0,0,0,0,0,
0,0,0,0,0,0,0,0,0,0,0,0,0,0,0,0,0,0,0,0,0,0,0,0,0,0,0,0,0,0,0,0,0,0,0,0,0,0,0,0,0,0,0,0,0,0,0,0,0,0,0,0,0,0,0,0,0,0,0,0,0,0,0,0,
0,0,0,0,0,0,0,0,0,0,0,0,0,0,0,0,0,0,0,0,0,0,0,0,0,0,0,0,0,0,0,0,0,0,0,0,0,0,0,0,0,0,0,0,0,0,0,0,0,0,0,0,0,0,0,0,0,0,0,0,0,0,0,0,
0,0,0,0,0,0,0,0,0,0,0,0,0,0,0,0,0,0,0,0,1465,1466,0,0,0,0,0,0,0,0,0,0,0,0,0,0,0,0,0,0,0,0,0,0,0,0,0,0,0,0,0,0,0,0,0,0,0,0,0,0,0,0,0,0,
0,0,0,0,0,0,0,0,0,0,0,0,0,0,0,0,0,0,0,0,1495,1496,0,0,0,0,0,0,0,0,0,0,0,0,0,0,0,0,0,0,0,0,0,0,0,0,0,0,0,0,0,0,0,0,0,0,0,0,0,0,0,0,0,0,
0,0,0,0,0,0,0,0,0,0,0,0,0,0,0,0,0,0,0,0,0,0,0,0,0,0,0,0,0,0,0,0,0,0,0,0,0,0,0,0,0,0,0,0,0,0,0,0,0,0,0,0,0,0,0,0,0,0,0,0,0,0,0,0,
0,0,0,0,0,0,0,0,0,0,0,0,0,0,0,0,0,0,0,0,0,0,0,0,0,0,0,0,0,0,0,0,0,0,0,0,0,0,0,0,0,0,0,0,0,0,0,0,0,0,0,0,0,0,0,0,0,0,0,0,0,0,0,0,
0,0,0,0,0,0,0,0,0,0,0,0,0,0,0,0,0,0,0,0,0,0,0,0,0,0,0,0,0,0,0,0,0,0,0,0,0,0,0,0,0,0,0,0,0,0,0,0,0,0,0,0,0,0,0,0,0,0,0,0,0,0,0,0,
0,0,0,0,0,0,0,0,0,0,0,0,0,0,0,0,0,0,0,0,0,0,0,0,0,0,0,0,0,0,0,0,0,0,0,0,0,0,0,0,0,0,0,0,0,0,0,0,0,0,0,0,0,0,0,0,0,0,0,0,0,0,0,0,
0,0,0,0,0,0,0,0,0,0,0,0,0,0,0,0,0,0,0,0,0,0,0,0,0,0,0,0,0,0,0,0,0,0,0,0,0,0,0,0,0,0,0,0,0,0,0,0,0,0,0,0,0,0,0,0,0,0,0,0,0,0,0,0,
0,0,0,0,0,0,0,0,0,0,0,0,0,0,0,0,0,0,0,0,0,0,0,0,0,0,0,0,0,0,0,0,0,0,0,0,0,0,0,0,0,0,0,0,0,0,0,0,0,0,0,0,0,0,0,0,0,0,0,0,0,0,0,0,
0,0,0,0,0,0,0,0,0,0,0,1577,1578,1579,1580,0,0,0,0,0,0,0,0,0,0,0,0,0,0,0,0,0,0,0,0,0,0,0,0,0,0,0,0,0,1465,1466,0,0,0,0,0,0,0,0,0,0,0,0,0,0,0,0,0,0,
0,0,0,0,0,0,0,0,0,0,0,1607,1608,1609,1610,0,0,0,0,0,0,0,0,0,0,0,0,0,0,0,0,0,0,0,0,0,0,0,0,0,0,0,0,0,1495,1496,0,0,0,0,0,0,0,0,0,0,0,0,0,0,0,0,0,0,
0,0,0,0,0,0,0,0,0,0,0,1637,1638,1639,1640,0,0,0,0,0,0,0,0,0,0,0,0,0,0,0,0,0,0,0,0,0,0,0,0,0,0,0,0,0,0,0,0,0,0,0,0,0,0,0,0,0,0,0,0,0,0,0,0,0,
0,0,0,0,0,0,0,0,0,0,0,1667,1668,1669,1670,0,0,0,0,0,0,0,0,0,0,0,0,0,0,0,0,0,0,0,0,0,0,0,0,0,0,0,0,0,0,0,0,0,0,0,0,0,0,0,0,0,0,0,0,0,0,0,0,0,
0,0,0,0,0,0,0,0,0,0,0,0,0,0,0,0,0,0,0,0,0,0,0,0,0,0,0,0,0,0,0,0,0,0,0,0,0,0,0,0,0,0,0,0,0,0,0,0,0,0,0,0,0,0,0,0,0,0,0,0,0,0,0,0,
0,0,0,0,0,0,0,0,0,0,0,0,0,0,0,0,0,0,0,0,0,0,0,0,0,0,0,0,0,0,0,0,0,0,0,0,0,0,0,0,0,0,0,0,0,0,0,0,0,0,0,0,0,0,0,0,0,0,0,0,0,0,0,0,
0,0,0,0,0,0,0,0,0,0,0,0,0,0,0,0,0,0,0,0,0,0,0,0,0,0,0,0,0,0,0,0,0,0,0,0,0,0,0,0,0,0,0,0,0,0,0,0,0,0,0,0,0,0,0,0,0,0,0,0,0,0,0,0,
0,0,0,0,0,0,0,0,0,0,0,0,0,0,0,0,0,0,0,0,0,0,0,0,0,0,0,0,0,0,0,0,0,0,0,0,0,0,0,0,0,0,0,0,0,0,0,0,0,0,0,0,0,0,0,0,0,0,0,0,0,0,0,0,
0,0,0,0,0,0,0,0,0,0,0,0,0,0,0,0,0,0,0,0,0,0,0,0,0,0,0,0,0,0,0,0,0,0,0,0,0,0,0,0,0,0,0,0,0,0,0,0,0,0,0,0,0,0,0,0,0,0,0,0,0,0,0,0,
0,0,0,0,0,0,0,0,0,0,0,0,0,0,0,0,0,0,0,0,0,0,0,0,0,0,0,0,0,0,0,0,0,0,0,0,0,0,0,0,0,0,0,0,0,0,0,0,0,0,0,0,0,0,0,0,0,0,0,0,0,0,0,0,
0,0,0,0,0,0,0,0,0,0,0,0,0,0,0,0,0,0,0,0,0,0,0,0,0,0,0,0,0,0,0,0,0,0,0,0,0,0,0,0,0,0,0,0,0,0,0,0,0,0,0,0,0,0,0,0,0,0,0,0,0,0,0,0,
0,0,0,0,0,0,0,0,0,0,0,0,0,0,0,0,0,0,0,0,0,0,0,0,0,0,0,0,0,0,0,0,0,0,0,0,0,0,0,0,0,0,0,0,0,0,0,0,0,0,0,0,0,0,0,0,0,0,0,0,0,0,0,0,
0,0,0,0,0,0,0,0,0,0,0,0,0,0,0,0,0,0,0,0,0,0,0,0,0,0,0,0,0,0,0,0,0,0,0,0,0,0,0,0,0,0,0,0,0,0,0,0,0,0,0,0,0,0,0,0,0,0,0,0,0,0,0,0,
0,0,0,0,0,0,0,0,0,0,0,0,0,0,0,0,0,0,0,0,0,0,0,0,0,0,0,0,0,0,0,0,0,0,0,0,0,0,0,0,0,0,0,0,0,0,0,0,0,0,0,0,0,0,0,0,0,0,0,0,0,0,0,0,
0,0,0,0,0,0,0,0,0,0,0,0,0,0,0,0,0,0,0,0,0,0,0,0,0,0,0,0,0,0,0,0,0,0,0,0,0,0,0,0,0,0,0,0,0,0,0,0,0,0,0,0,0,0,0,0,0,0,0,0,0,0,0,0,
0,0,0,0,0,0,0,0,0,0,0,0,0,0,0,0,0,0,0,0,0,0,0,0,0,0,0,0,0,0,0,0,0,0,0,0,0,0,0,0,0,0,0,0,0,0,0,0,0,0,0,0,0,0,0,0,0,0,0,0,0,0,0,0,
0,0,0,0,0,0,0,0,0,0,0,0,0,0,0,0,0,0,0,0,0,0,0,0,0,0,0,0,0,0,0,0,0,0,0,0,0,0,0,0,0,0,0,0,0,0,0,0,0,0,0,0,0,0,0,0,0,0,0,0,0,0,0,0,
0,0,0,0,0,0,0,0,0,0,0,0,0,0,0,1465,1466,0,0,0,0,0,0,0,0,0,0,0,0,0,0,0,0,0,0,0,0,0,0,0,0,0,0,0,0,0,0,0,0,0,0,0,0,0,0,0,0,0,0,0,0,0,0,0,
0,0,0,0,0,0,0,0,0,0,0,0,0,0,0,1495,1496,0,0,0,0,0,0,0,0,0,0,0,0,0,0,0,0,0,0,0,0,0,0,0,0,0,0,0,0,0,0,0,0,0,0,0,0,0,0,0,0,0,0,0,0,0,0,0,
0,0,0,0,0,0,0,0,0,0,0,0,0,0,0,0,0,0,0,0,0,0,0,0,0,0,0,0,0,0,0,0,0,0,0,0,0,0,0,0,0,0,0,0,0,0,0,0,0,0,0,0,0,0,0,0,0,0,0,0,0,0,0,0,
0,0,0,0,0,0,0,0,0,0,0,0,0,0,0,0,0,0,0,0,0,0,0,0,0,0,0,0,0,0,0,0,0,0,0,0,0,0,0,0,0,0,0,0,0,0,0,0,0,0,0,0,0,0,0,0,0,0,0,0,0,0,0,0,
0,0,0,0,0,0,0,0,0,0,0,0,0,0,0,0,0,0,0,0,0,0,0,0,0,0,0,0,0,0,0,0,0,0,0,0,0,0,0,0,0,1577,1578,1579,1580,0,0,0,0,0,0,0,0,0,0,0,0,0,0,0,0,0,0,0,
0,0,0,0,0,0,0,0,0,0,0,0,0,0,0,0,0,0,0,0,0,0,0,0,0,0,0,0,0,0,0,0,0,0,0,0,0,0,0,0,0,1607,1608,1609,1610,0,0,0,0,0,0,0,0,0,0,0,0,0,0,0,0,0,0,0,
0,0,0,0,0,0,0,0,0,0,0,0,0,0,0,0,0,0,0,0,0,0,0,0,0,0,0,0,0,0,0,0,0,0,0,0,0,0,0,0,0,1637,1638,1639,1640,0,0,0,0,0,0,0,0,0,0,0,0,0,0,0,0,0,0,0,
0,0,0,0,0,0,0,0,0,0,0,0,0,0,0,0,0,0,0,0,0,0,0,0,0,0,0,0,0,0,0,0,0,0,0,0,0,0,0,0,0,1667,1668,1669,1670,0,0,0,0,0,0,0,0,0,0,0,0,0,0,0,0,0,0,0,
0,0,0,0,0,0,0,0,0,0,0,0,0,0,0,0,0,0,0,0,0,0,0,0,0,0,0,0,0,0,0,0,0,0,0,0,0,0,0,0,0,0,0,0,0,0,0,0,0,0,0,0,0,0,0,0,0,0,0,0,0,0,0,0,
0,0,0,0,0,0,0,0,0,0,0,0,0,0,0,0,0,0,0,0,0,0,0,0,0,0,0,0,0,0,0,0,0,0,0,0,0,0,0,0,0,0,0,0,0,0,0,0,0,0,0,0,0,0,0,0,0,0,0,0,0,0,0,0,
0,0,0,0,0,0,0,0,0,0,0,0,0,0,0,0,0,0,0,0,0,0,0,0,0,0,0,0,0,0,0,0,0,0,0,0,0,0,0,0,0,0,0,0,0,0,0,0,0,0,0,0,0,0,0,0,0,0,0,0,0,0,0,0,
0,0,0,0,0,0,0,0,0,0,0,0,0,0,0,0,0,0,0,0,0,0,0,0,0,0,0,0,0,0,0,0,0,0,0,0,0,0,0,0,0,0,0,0,0,0,0,0,0,0,0,0,0,0,0,0,0,0,0,0,0,0,0,0,
0,0,0,0,0,0,0,0,0,0,0,0,0,0,0,0,0,0,0,0,0,0,0,0,0,0,0,0,0,0,0,0,0,0,0,0,0,0,0,0,0,0,0,0,0,0,0,0,0,0,0,0,0,0,0,0,0,0,0,0,0,0,0,0,
0,0,0,0,0,0,0,0,0,0,0,0,0,0,0,0,0,0,0,0,0,0,0,0,0,0,0,0,0,0,0,0,0,0,0,0,0,0,0,0,0,0,0,0,0,0,0,0,0,0,0,0,0,0,0,0,0,0,0,0,0,0,0,0,
0,0,0,0,0,0,0,0,0,0,0,0,0,0,0,0,0,0,0,0,0,0,0,0,0,0,0,0,0,0,0,0,0,0,0,0,0,0,0,0,0,0,0,0,0,0,0,0,0,0,0,0,0,0,0,0,0,0,0,0,0,0,0,0,
0,0,0,0,0,0,0,0,0,0,0,0,0,0,0,0,0,0,0,0,0,0,0,0,0,0,0,0,0,0,0,0,0,0,0,0,0,0,0,0,0,0,0,0,0,0,0,0,0,0,0,0,0,0,0,0,0,0,0,0,0,0,0,0,
0,0,0,0,0,0,0,0,0,0,0,0,0,0,0,0,0,0,0,0,0,0,0,0,0,0,0,0,0,0,0,0,0,0,0,0,0,0,0,0,0,0,0,0,0,0,0,0,0,0,0,0,0,0,0,0,0,0,0,0,0,0,0,0,
0,0,0,0,0,0,0,0,0,0,0,0,0,0,0,0,0,0,0,0,0,0,0,0,0,0,0,0,0,0,0,0,0,0,0,0,0,0,0,0,0,0,0,0,0,0,0,0,0,0,0,0,0,0,0,0,0,0,0,0,0,0,0,0,
0,0,0,0,0,0,0,0,0,0,0,0,0,0,0,0,0,0,0,0,0,0,0,0,0,0,0,0,0,0,0,0,0,0,0,0,0,0,0,0,0,0,0,0,0,0,0,0,0,0,0,0,0,0,0,0,0,0,0,0,0,0,0,0,
0,0,0,0,0,0,0,0,0,0,0,0,0,0,0,0,0,0,0,0,0,0,0,0,0,0,0,0,0,0,0,0,0,0,0,0,0,0,0,0,0,0,0,0,0,0,0,0,0,0,0,0,0,0,0,0,0,0,0,0,0,0,0,0,
0,0,0,0,0,0,0,0,0,0,0,0,0,0,0,0,0,0,0,0,0,0,0,0,0,0,0,0,0,0,0,0,0,0,0,0,0,0,0,0,0,0,0,0,0,0,0,0,0,0,0,0,0,0,0,0,0,0,0,0,0,0,0,0,
0,0,0,0,0,0,0,0,0,0,0,0,0,0,0,0,0,0,0,0,0,0,0,0,0,0,0,0,0,0,0,0,0,0,0,0,0,0,0,0,0,0,0,0,0,0,0,0,0,0,0,0,0,0,0,0,0,0,0,0,0,0,0,0,
0,0,0,0,0,0,0,0,0,0,0,0,0,0,0,0,0,0,0,0,0,0,0,0,0,0,0,0,0,0,0,0,0,0,0,0,0,0,0,0,0,0,0,0,0,0,0,0,0,0,0,0,0,0,0,0,0,0,0,0,0,0,0,0
</data>
 </layer>
 <objectgroup id="3" name="items">
  <object id="12" gid="1557" x="560" y="480" width="16" height="16"/>
  <object id="14" gid="1557" x="560" y="480" width="16" height="16">
   <properties>
    <property name="msg" value="Looks delicious"/>
   </properties>
  </object>
  <object id="15" gid="1557" x="448" y="496" width="16" height="16"/>
  <object id="16" gid="1557" x="496" y="416" width="16" height="16">
   <properties>
    <property name="msg" value="MHHHHH"/>
   </properties>
  </object>
  <object id="17" gid="1557" x="448" y="496" width="16" height="16">
   <properties>
    <property name="msg" value="Good!"/>
    <property name="restore" value="10"/>
   </properties>
  </object>
 </objectgroup>
</map>
