<?xml version="1.0" encoding="UTF-8"?>
<map version="1.10" tiledversion="1.11.2" orientation="orthogonal" renderorder="right-down" width="100" height="100" tilewidth="32" tileheight="32" infinite="0" nextlayerid="5" nextobjectid="5">
 <tileset firstgid="1" name="terrain_atlas" tilewidth="32" tileheight="32" tilecount="1024" columns="32">
  <image source="public/tilesets/terrain_atlas.png" width="1024" height="1024"/>
  <tile id="158">
   <properties>
    <property name="collision" type="bool" value="true"/>
   </properties>
  </tile>
  <tile id="159">
   <properties>
    <property name="collision" type="bool" value="true"/>
   </properties>
  </tile>
  <tile id="780">
   <properties>
    <property name="msg" value="Looks delicious"/>
   </properties>
  </tile>
 </tileset>
 <layer id="1" name="bottom" width="100" height="100">
  <data encoding="csv">
374,183,183,374,374,374,376,182,374,375,182,375,183,183,376,183,184,374,182,375,374,311,375,376,374,375,376,374,375,376,311,375,375,376,374,374,376,311,375,375,311,376,376,374,376,311,376,311,311,375,376,376,375,374,374,376,375,374,374,375,376,311,375,375,311,375,311,311,311,376,374,375,311,375,376,375,375,374,374,311,376,376,311,375,311,375,311,311,376,376,375,374,374,374,311,376,374,374,311,376,
183,375,376,184,182,375,184,375,184,183,184,375,182,374,376,183,183,184,375,182,376,375,311,374,375,374,376,374,376,374,374,311,374,376,376,376,375,375,376,375,311,374,375,311,376,311,374,376,311,375,375,374,375,374,376,375,376,374,376,376,374,375,374,311,376,374,376,375,374,375,376,311,311,311,374,311,311,374,374,374,374,375,311,375,375,376,376,375,375,374,375,374,376,311,376,376,376,375,311,311,
374,183,183,183,182,184,184,374,376,183,375,184,375,184,183,184,374,182,375,184,374,375,374,376,311,311,376,376,375,374,311,376,376,375,374,375,311,376,374,375,376,376,374,375,375,375,376,376,376,376,374,375,374,311,376,375,375,374,311,376,376,374,374,376,376,376,376,376,311,311,311,311,311,375,311,375,375,374,376,311,376,375,375,374,311,376,374,374,374,376,311,376,311,376,374,376,375,375,311,375,
376,184,183,182,374,182,374,184,184,182,374,375,182,184,374,374,182,183,375,184,375,375,374,375,375,375,375,374,374,311,374,311,374,374,374,311,375,374,311,374,376,374,376,311,375,311,375,376,376,311,311,376,376,376,376,374,375,376,375,375,311,375,376,311,311,375,374,374,375,311,374,311,375,375,374,375,376,375,375,375,375,311,311,376,311,311,311,311,374,311,311,374,375,374,375,375,375,311,375,375,
183,375,182,375,376,374,375,374,184,376,182,375,184,182,184,376,183,182,375,182,374,376,374,374,311,376,375,376,374,311,376,376,311,376,376,374,376,311,374,375,375,374,376,311,374,375,374,374,375,375,311,376,311,311,311,374,375,376,311,311,375,311,374,311,375,375,376,374,311,311,311,376,375,311,376,376,311,374,376,376,374,375,376,375,375,311,374,376,374,376,375,376,374,376,375,376,376,375,376,374,
374,375,184,374,183,182,375,182,375,376,183,375,375,182,376,184,182,184,184,375,311,376,374,375,375,376,374,375,311,376,374,375,311,374,375,375,375,374,376,311,374,374,375,375,375,376,375,376,375,374,376,374,376,375,376,311,374,376,376,374,375,311,375,374,311,376,376,374,374,376,375,374,311,374,376,376,376,374,311,375,311,311,374,375,311,376,376,374,311,375,311,376,374,374,311,376,374,311,376,376,
374,184,182,184,184,375,375,375,375,183,375,374,183,183,182,374,183,375,374,182,376,375,376,376,374,376,376,374,311,374,376,374,375,375,375,374,375,375,376,374,376,311,375,375,374,311,374,311,374,374,376,374,374,376,311,376,311,374,376,311,375,376,374,374,374,375,376,376,375,311,375,376,311,376,374,311,376,311,376,376,375,375,311,376,375,376,376,311,374,374,374,311,311,375,376,376,374,374,311,376,
184,182,184,376,376,183,375,376,375,183,182,184,182,182,184,184,183,375,182,376,311,311,375,311,311,375,311,374,311,376,376,376,376,374,376,374,375,376,311,375,376,376,311,376,376,375,374,311,376,375,311,375,311,375,311,311,374,311,311,374,311,374,311,374,376,311,374,374,311,375,311,311,375,375,311,375,374,375,311,376,311,376,376,311,376,311,374,374,375,375,374,376,374,376,376,311,311,311,374,376,
182,184,375,375,183,376,374,376,375,376,374,375,374,375,376,375,184,374,374,376,376,376,375,374,375,376,375,311,375,374,374,375,374,374,375,311,375,374,376,311,375,376,375,374,374,375,374,376,376,376,374,376,376,311,376,375,311,376,376,374,311,311,311,374,374,311,376,311,311,374,375,374,374,374,311,311,376,374,374,374,374,376,375,375,376,311,375,376,375,311,311,311,376,374,375,374,374,374,375,311,
375,376,374,376,183,375,374,374,184,374,184,375,183,184,376,374,184,184,375,183,376,375,376,376,374,376,311,376,311,374,376,375,375,374,376,376,375,374,375,376,374,374,374,374,374,374,375,374,375,311,375,376,311,375,375,376,374,311,375,375,374,376,311,374,374,375,374,376,375,375,376,375,311,374,376,376,376,374,376,376,311,375,376,374,374,376,375,311,374,311,375,375,376,376,375,376,375,376,376,374,
376,182,375,183,183,374,375,374,376,375,182,374,376,182,182,183,376,374,184,182,375,374,376,375,374,375,375,375,374,311,374,311,376,375,375,374,374,376,311,374,311,375,376,374,376,375,375,311,311,374,311,376,376,311,376,374,376,375,311,374,374,311,374,375,311,375,375,375,311,376,374,375,375,311,311,375,374,311,311,376,374,311,375,311,376,311,374,376,375,376,376,375,376,311,375,375,311,311,376,374,
374,375,374,376,183,183,374,375,184,184,182,184,182,183,375,374,184,183,376,376,376,311,376,374,311,375,376,311,374,374,375,376,376,374,374,376,311,374,311,375,376,376,375,375,374,376,311,311,374,375,375,311,374,375,311,311,376,311,375,376,311,376,375,311,374,374,311,311,375,375,311,375,376,311,374,374,311,374,374,376,311,375,311,374,376,374,374,376,376,375,375,311,311,375,311,374,375,311,311,375,
375,182,183,184,376,375,374,183,376,184,374,376,184,183,375,374,182,376,375,182,311,311,374,311,376,375,375,374,311,375,375,374,375,374,376,376,311,311,374,311,311,374,311,374,376,311,311,376,375,375,374,374,375,374,375,311,375,376,376,311,376,374,374,375,375,374,375,375,375,311,311,374,374,376,376,376,376,375,311,374,375,311,376,376,374,311,375,375,374,375,376,374,374,376,375,374,375,375,311,376,
183,184,183,376,184,374,184,184,374,184,376,374,376,376,183,374,376,184,183,376,375,311,375,375,376,311,375,374,375,311,375,311,374,374,311,374,375,311,375,311,375,376,311,375,374,375,374,311,375,374,311,375,376,375,374,311,375,376,375,374,375,375,374,376,311,311,311,311,375,311,374,374,374,374,311,375,374,376,311,375,376,375,374,375,311,376,311,374,375,311,375,374,311,376,374,311,376,375,374,375,
374,375,182,376,375,374,183,376,184,182,375,182,374,374,184,184,183,376,183,182,376,376,374,375,374,375,311,311,375,376,376,376,374,376,375,375,375,375,376,376,311,375,374,311,375,376,311,376,376,311,375,376,375,375,376,311,311,376,375,376,376,375,374,376,311,311,374,375,311,376,376,375,374,375,311,376,374,311,374,376,374,376,374,311,376,311,311,375,374,376,311,374,376,375,376,376,311,311,376,311,
375,182,376,182,182,376,184,374,375,182,376,182,183,182,183,184,374,376,184,375,311,376,311,374,374,311,374,376,374,375,376,374,374,376,311,374,375,311,374,311,374,311,376,311,375,375,376,311,311,375,311,311,376,374,375,311,311,376,375,376,375,311,374,376,375,375,374,376,311,375,311,374,311,376,311,311,375,375,376,374,375,376,374,375,375,376,311,311,376,376,311,375,376,376,375,376,375,375,311,311,
184,183,183,375,376,374,374,182,182,182,182,375,182,184,375,375,183,374,183,376,311,374,376,376,375,376,375,376,374,376,374,375,375,311,376,375,375,374,376,374,374,374,375,311,374,311,376,311,374,375,374,375,376,311,311,375,311,376,311,376,374,374,375,311,374,311,311,375,375,374,374,376,375,375,375,374,375,376,376,376,376,376,374,375,376,311,374,376,375,374,311,374,375,376,374,374,375,311,375,376,
374,183,376,183,375,183,375,183,374,182,183,375,182,182,182,183,182,183,376,374,374,311,376,311,376,376,311,375,311,374,376,375,375,375,374,374,376,374,374,374,311,376,374,376,375,311,374,376,311,375,311,374,376,376,374,375,311,311,376,375,311,376,376,375,374,374,376,311,374,376,311,374,311,375,376,376,374,311,375,375,375,376,374,375,375,374,375,375,374,311,376,374,375,374,311,374,376,311,376,374,
183,375,374,376,374,184,182,374,374,182,182,183,376,184,376,184,376,375,184,183,311,375,376,374,376,376,311,374,376,311,374,311,311,311,374,376,311,375,375,311,374,375,311,374,374,311,374,374,375,311,374,374,374,374,376,375,375,375,374,375,311,376,376,374,375,375,311,311,311,376,311,311,374,375,375,374,374,376,376,376,376,311,376,376,375,375,311,374,374,376,311,374,376,375,311,374,374,375,376,375,
182,184,376,376,375,184,375,376,374,183,184,183,184,374,184,375,374,182,183,182,311,311,375,374,311,376,376,374,311,376,375,374,374,376,376,375,376,376,374,311,374,376,311,374,311,375,375,311,311,311,374,374,375,374,376,376,374,311,311,374,311,375,375,311,374,311,376,311,311,376,374,376,374,375,376,376,311,374,375,374,311,376,376,374,376,311,375,374,311,311,311,376,375,375,374,374,311,374,376,374,
311,376,375,374,311,311,376,311,374,375,376,375,376,375,375,375,375,376,374,376,374,376,376,374,374,311,374,375,375,375,375,376,374,375,311,311,376,376,311,311,311,311,311,376,375,374,311,311,311,311,374,375,311,375,376,375,375,375,375,311,311,374,375,375,375,311,374,375,375,376,376,375,311,311,311,376,311,374,374,376,375,311,375,374,376,375,311,374,374,376,376,375,374,374,311,376,375,311,375,311,
374,376,311,376,375,376,311,375,311,311,376,375,375,374,374,376,374,375,376,375,376,311,375,374,374,374,374,311,311,376,376,375,374,375,374,374,376,311,376,376,375,375,374,375,374,374,374,375,374,374,376,375,376,374,374,376,375,375,374,311,374,376,376,375,375,374,376,374,376,311,374,375,374,374,375,374,375,375,311,376,311,376,374,374,311,374,376,374,376,375,374,311,375,374,375,375,374,311,376,374,
311,374,375,376,311,374,374,376,376,374,375,376,374,311,376,374,375,375,374,311,311,374,311,374,374,311,311,375,311,375,311,375,375,374,376,311,376,311,376,311,375,375,375,374,374,311,375,376,376,376,311,311,311,374,375,375,375,311,374,376,375,376,375,376,376,375,374,375,311,375,374,374,374,376,376,376,374,375,374,376,376,374,375,374,375,311,374,376,376,375,311,311,375,374,311,311,376,376,375,376,
374,376,374,374,376,375,375,311,376,374,311,311,374,374,375,376,374,311,311,311,376,311,376,376,375,374,311,311,376,374,376,311,311,375,375,376,374,376,311,311,375,375,375,374,376,374,374,375,311,376,375,374,376,376,376,376,376,376,376,376,374,376,374,311,376,376,374,374,311,376,376,374,375,374,375,376,376,375,376,374,376,311,311,374,376,311,374,376,375,374,374,374,375,311,311,311,375,375,311,375,
374,376,311,374,376,374,376,376,311,376,376,311,376,376,311,375,375,374,375,376,376,376,311,374,311,376,374,376,374,375,311,311,376,374,375,374,375,374,374,375,374,376,374,311,374,311,376,376,376,311,375,376,375,375,375,376,376,375,376,375,375,374,374,376,374,374,311,375,375,374,374,375,374,311,376,375,375,374,375,374,375,374,311,374,375,375,374,376,376,376,376,374,376,374,374,374,376,375,375,376,
375,375,376,376,374,374,376,375,375,375,376,375,376,374,311,376,375,375,375,376,374,374,311,375,374,311,374,374,374,311,374,376,311,375,311,311,374,311,375,374,311,375,311,375,311,374,376,311,311,376,311,376,311,375,374,311,376,375,375,375,375,311,375,311,374,376,311,375,374,376,311,374,375,376,311,311,375,375,311,375,376,374,375,376,376,374,311,375,375,375,374,374,376,375,376,376,375,376,311,375,
311,374,311,376,376,375,374,311,375,375,374,376,311,311,374,311,376,311,376,376,376,374,374,374,375,376,376,374,375,376,374,376,376,375,376,375,311,376,311,374,376,311,374,311,375,376,311,311,375,376,311,311,375,311,374,376,374,376,375,374,311,311,374,374,374,375,311,376,311,376,375,311,376,311,375,311,376,374,311,376,375,376,311,374,311,376,376,376,376,375,375,374,376,374,375,375,375,374,311,376,
375,374,311,375,311,311,375,376,311,311,374,374,311,311,311,374,311,376,375,376,376,374,376,375,374,311,375,376,376,376,375,375,374,376,374,376,311,376,374,374,374,376,376,311,374,376,375,375,374,376,376,376,311,376,375,375,375,311,375,376,375,375,376,311,376,376,376,374,376,375,374,311,374,376,375,376,311,376,376,374,311,374,376,311,376,311,374,375,376,376,311,375,375,375,374,376,375,374,311,375,
374,374,375,374,311,376,311,374,311,374,374,376,374,375,374,311,311,311,374,374,311,374,375,375,375,376,374,374,311,376,375,374,375,374,376,376,376,311,311,375,311,375,376,375,374,376,374,376,374,374,375,375,311,311,375,375,375,376,374,311,311,375,374,311,374,374,375,311,374,375,311,375,311,375,311,311,311,311,311,376,311,376,374,375,376,375,375,374,311,375,374,374,374,311,376,375,375,311,375,311,
311,375,375,376,374,374,311,376,376,374,311,311,311,376,374,376,374,375,374,375,311,311,376,311,376,375,376,376,376,374,375,375,375,375,376,375,375,311,374,376,376,374,376,311,374,374,311,311,311,374,375,311,375,311,376,376,374,375,311,375,376,374,374,376,375,374,375,311,376,375,376,374,375,374,376,375,376,311,374,374,376,311,376,376,375,311,376,375,376,374,311,311,374,311,374,375,374,311,374,374,
311,376,374,376,374,311,376,311,376,376,376,376,376,374,374,374,374,311,374,374,311,374,375,375,376,376,375,374,311,376,376,375,376,376,375,311,376,375,374,311,376,374,376,376,311,374,376,374,311,375,311,376,375,374,311,311,374,375,375,376,311,376,311,374,374,376,376,374,376,375,376,311,374,374,376,374,374,374,374,374,311,376,374,311,376,311,376,376,376,376,374,374,375,374,311,376,311,311,376,311,
374,375,375,311,376,311,374,375,311,375,375,376,311,375,374,375,311,311,311,374,376,311,374,311,376,311,375,376,311,376,376,374,375,311,311,376,376,376,311,375,374,374,375,311,375,375,376,375,374,374,311,376,376,375,311,374,374,375,374,375,376,376,376,376,311,374,374,375,374,375,376,376,374,374,376,374,374,374,374,374,375,375,311,374,311,374,376,374,376,311,374,375,375,376,376,311,376,376,375,374,
374,311,375,311,374,375,375,376,375,374,374,375,375,311,374,311,375,374,311,311,376,374,311,374,374,374,374,311,376,376,374,376,375,311,375,376,374,375,374,375,311,375,311,375,376,311,376,374,375,376,375,376,374,311,375,376,376,311,311,376,311,376,376,311,311,375,375,375,374,311,311,375,375,374,375,375,311,374,311,376,375,376,311,311,376,311,376,376,311,374,376,311,375,376,375,375,374,374,311,374,
374,374,374,376,376,375,374,376,376,311,375,374,311,376,311,311,311,311,374,311,311,374,375,376,311,374,376,374,374,376,375,376,374,311,311,375,376,375,311,376,376,311,311,311,311,376,374,375,376,375,311,311,311,374,374,311,376,374,311,375,311,376,376,311,311,311,374,311,375,374,375,374,375,374,375,375,311,375,374,374,376,311,311,375,375,375,375,374,376,375,375,311,376,374,375,311,311,311,374,374,
375,374,375,311,375,374,375,375,376,376,376,376,375,311,374,375,376,374,311,375,311,311,311,375,311,311,375,376,376,374,375,376,374,374,311,376,311,375,311,311,374,376,374,311,311,375,376,311,375,311,374,374,376,376,376,311,374,375,375,376,376,311,311,311,311,374,374,375,374,311,375,376,311,375,311,376,374,375,376,376,374,311,376,311,311,311,374,311,375,376,311,376,376,311,374,374,374,311,376,376,
311,375,374,375,311,311,376,375,376,311,375,374,311,375,374,374,374,375,376,376,374,376,311,375,311,374,376,375,374,375,375,374,375,374,375,311,374,311,311,376,374,375,311,376,376,374,376,376,375,375,376,375,311,375,375,311,376,311,311,374,375,376,376,311,376,376,311,375,376,376,374,311,311,376,376,311,374,374,311,376,311,376,374,375,375,375,374,375,311,311,376,376,376,376,374,311,376,374,375,375,
311,375,374,376,311,374,374,311,375,376,311,376,376,375,375,375,374,375,311,376,311,376,375,374,374,374,375,376,311,376,311,375,374,375,375,376,374,311,311,375,375,311,376,311,376,311,376,376,311,311,376,311,375,311,376,375,311,376,311,374,375,311,376,311,311,375,376,375,375,376,375,374,374,311,374,311,375,376,376,374,375,374,375,311,311,375,374,376,311,375,311,376,311,376,374,374,376,374,311,376,
374,311,374,375,375,374,374,375,376,375,376,311,375,374,374,375,374,376,374,376,374,376,376,376,374,375,376,311,374,376,311,311,374,375,375,311,376,374,311,375,376,375,311,374,374,311,375,375,375,311,375,311,375,376,311,311,376,375,376,374,376,311,375,376,375,376,311,311,374,374,311,311,374,376,311,376,375,374,374,376,311,376,375,311,376,311,376,376,311,375,376,311,374,311,375,376,376,311,376,376,
376,375,374,374,374,376,311,375,374,376,374,311,375,375,374,376,375,376,376,375,375,376,376,376,374,311,311,376,376,374,374,375,376,375,374,374,375,375,375,311,374,311,311,311,374,311,311,311,375,311,374,311,374,376,311,375,375,374,376,374,375,311,375,374,376,311,311,375,311,375,311,376,375,374,376,374,311,376,374,311,375,376,375,374,375,374,311,376,376,311,311,376,311,375,374,374,374,376,375,376,
376,311,374,376,375,311,376,375,311,375,374,374,376,375,311,376,375,375,376,374,311,375,375,376,376,375,376,374,375,375,376,376,311,375,376,375,374,376,375,375,311,376,376,375,374,376,375,374,311,374,375,376,311,375,376,376,374,375,376,375,375,376,374,375,374,375,374,374,376,311,374,311,374,311,376,374,376,376,311,375,374,374,375,376,374,311,374,375,376,375,311,311,376,375,375,311,375,376,376,375,
375,311,375,374,376,311,375,375,375,374,374,374,374,376,311,374,311,376,375,311,311,311,311,374,374,375,374,376,375,376,375,311,376,375,374,374,376,311,311,311,311,311,374,376,375,311,375,374,311,374,374,376,376,311,374,375,376,376,374,374,374,374,374,376,375,376,375,376,311,374,375,376,374,374,375,375,376,375,311,376,311,311,375,374,375,311,311,374,374,374,376,311,375,311,311,311,374,374,311,311,
311,311,374,375,374,374,376,311,376,376,376,374,311,375,375,311,375,375,374,375,376,374,375,376,375,374,374,376,375,375,311,311,376,374,375,375,374,311,311,376,375,374,311,311,374,374,375,374,376,375,374,375,374,375,375,375,376,374,375,375,374,376,376,375,311,311,376,375,374,376,311,311,376,376,376,311,375,311,374,374,376,311,375,376,375,375,311,374,374,375,375,311,375,376,376,376,311,311,375,311,
375,375,311,374,374,311,376,376,311,311,376,375,311,376,311,375,374,375,376,376,311,375,311,375,374,376,375,376,374,374,374,311,376,375,376,311,374,374,311,375,375,311,374,311,311,376,376,376,376,375,376,376,311,376,375,376,375,311,376,375,375,374,375,311,374,376,376,311,374,311,376,311,376,311,376,376,374,376,375,374,376,374,376,311,375,376,375,376,375,376,376,376,374,376,374,311,375,375,376,375,
375,375,375,375,374,311,311,311,374,374,376,376,311,374,374,311,375,375,311,374,375,376,375,375,374,375,374,376,374,311,374,376,374,374,376,311,375,376,374,376,311,375,374,311,375,376,374,376,376,375,311,311,376,376,374,374,375,311,374,376,376,311,374,374,376,375,376,376,311,376,376,374,311,311,311,375,376,311,311,374,375,374,375,376,376,375,374,311,374,376,375,374,375,376,374,375,375,311,374,375,
375,376,311,375,311,376,374,376,311,311,376,311,311,375,375,374,376,376,311,376,374,376,375,376,311,311,375,375,311,311,375,376,374,374,311,375,376,311,375,311,374,375,376,374,374,311,376,375,376,376,311,375,311,376,375,374,375,375,375,375,374,375,311,376,311,311,375,376,376,376,376,374,375,374,374,376,374,374,374,376,375,375,376,375,374,374,375,311,311,376,375,376,311,376,374,375,376,376,376,375,
376,311,375,311,376,374,374,375,375,376,311,376,374,374,374,374,311,311,376,375,376,375,376,311,375,374,375,374,375,374,374,375,374,374,375,376,311,375,375,374,374,376,374,311,376,374,376,376,311,374,376,374,374,374,375,375,375,375,374,311,374,311,376,376,376,374,375,376,374,374,376,311,376,376,374,311,374,311,376,376,374,374,311,311,376,374,375,374,375,374,375,375,374,311,376,375,311,376,311,376,
376,311,311,311,375,375,374,311,375,374,311,376,311,311,311,375,376,376,374,311,374,311,375,311,376,376,311,375,311,376,376,311,374,376,376,374,375,376,374,376,311,311,375,375,374,374,311,374,376,311,376,375,311,311,311,376,376,375,374,376,374,376,376,375,376,311,375,376,376,311,374,374,311,375,375,376,375,376,376,311,311,311,374,375,375,311,375,311,311,375,374,311,374,376,311,311,375,376,374,311,
311,311,374,375,375,376,311,375,374,374,311,311,374,375,374,311,376,374,376,311,375,376,376,311,376,375,376,311,375,311,374,374,374,374,374,374,376,374,374,376,376,374,375,375,376,311,374,311,375,311,376,375,376,376,376,311,311,376,376,374,376,376,375,311,376,375,374,374,376,375,311,374,311,311,311,374,374,376,376,376,376,376,376,376,375,311,374,376,374,311,374,374,374,311,311,376,375,374,376,311,
374,375,311,374,375,374,376,374,311,376,374,374,374,374,374,311,374,375,376,374,375,374,376,376,311,374,311,376,375,376,376,375,375,376,376,374,311,374,311,311,374,374,374,375,374,311,311,374,311,376,376,376,311,375,311,375,376,376,376,376,376,311,376,376,374,374,376,375,375,374,375,311,311,374,376,374,375,375,376,376,376,375,376,376,311,376,374,311,375,311,374,375,375,311,375,376,311,374,376,374,
311,374,376,376,375,374,376,311,374,376,376,311,311,376,376,375,374,311,376,374,375,375,376,376,311,374,375,374,375,375,375,374,375,375,375,374,375,311,311,311,376,311,375,311,374,376,376,376,374,375,311,311,375,311,376,311,376,311,374,376,311,311,375,374,376,375,375,311,376,376,374,311,375,311,376,374,311,311,311,376,374,311,375,311,311,311,374,375,376,376,311,374,375,311,374,376,311,311,374,311,
376,311,376,375,311,374,374,376,311,374,311,374,376,375,311,311,374,375,311,374,376,376,375,376,311,374,374,374,375,311,374,375,374,374,311,311,375,376,376,375,376,311,311,375,376,374,311,311,375,374,376,376,311,376,374,311,375,311,311,311,374,374,374,374,374,311,311,311,376,374,374,311,311,374,375,374,374,375,374,374,376,376,375,311,374,311,375,376,376,374,375,374,311,375,376,311,376,376,311,375,
376,374,376,375,311,375,376,374,375,311,376,376,376,374,311,375,376,311,374,374,375,311,374,376,376,376,375,374,375,374,376,376,375,375,374,376,374,376,376,374,376,375,375,311,376,311,374,375,375,311,376,375,311,374,375,375,374,376,376,311,376,311,311,375,374,376,311,376,311,311,374,311,311,376,375,311,374,375,375,374,311,375,311,374,376,376,374,376,375,375,376,376,374,374,311,311,376,374,374,376,
311,375,375,374,311,375,375,374,374,376,374,374,374,375,311,376,376,375,374,311,311,374,374,375,376,374,376,376,375,375,376,311,376,375,376,374,376,376,375,374,376,374,375,311,374,374,375,374,375,375,375,311,311,375,311,376,375,375,311,374,374,374,374,375,311,376,374,375,374,311,311,375,376,376,311,311,376,375,376,376,376,374,374,376,375,311,311,311,376,376,375,375,375,311,376,374,374,374,374,311,
311,374,375,374,375,375,375,374,311,311,375,311,376,375,375,375,311,375,375,311,311,311,376,311,375,375,374,376,375,375,376,311,311,375,374,374,375,374,374,376,375,374,375,376,376,311,376,376,374,374,376,374,311,374,376,376,311,374,376,311,374,311,376,311,375,376,311,375,376,375,375,374,311,374,376,374,376,376,374,375,374,375,376,375,376,375,311,311,311,374,311,376,375,311,311,374,374,374,376,376,
375,311,311,311,311,311,375,375,311,376,311,311,311,376,375,376,376,311,376,311,376,375,311,376,374,311,311,375,311,374,376,376,374,311,375,375,376,311,374,375,376,375,311,311,311,375,375,376,374,375,374,311,311,376,311,376,311,375,376,374,375,311,311,311,374,375,311,311,374,374,374,311,375,375,374,376,376,375,376,311,376,375,374,311,375,374,374,374,376,375,374,374,375,311,374,311,374,375,311,376,
374,311,375,375,374,376,311,311,376,311,311,374,376,375,374,311,374,311,375,375,374,374,375,311,311,375,375,311,376,375,311,375,311,376,374,311,376,311,375,376,374,311,374,374,311,311,376,311,376,375,375,376,311,311,375,375,376,374,374,376,311,374,375,375,375,311,376,374,311,374,375,375,311,311,376,375,376,374,311,374,375,374,374,374,376,376,375,376,376,376,374,374,374,311,311,311,374,376,376,376,
376,376,311,311,376,375,376,374,376,375,376,375,311,375,375,311,374,374,311,376,375,376,375,376,374,311,376,311,374,311,375,376,376,376,311,375,311,374,375,374,375,375,376,375,374,376,376,311,375,376,311,311,376,376,311,375,374,374,375,375,376,374,311,376,376,374,376,376,376,375,375,311,376,311,375,375,375,311,311,374,311,311,375,311,374,311,374,374,375,376,376,374,374,375,375,311,376,376,311,311,
376,376,311,374,376,375,376,374,311,374,375,374,375,311,374,311,375,375,311,374,376,311,375,374,311,376,374,374,311,375,311,311,311,375,375,311,376,376,376,374,311,376,376,374,374,375,311,376,375,311,374,374,311,374,374,376,311,311,375,375,311,375,311,375,376,375,376,376,374,375,375,376,374,374,374,376,311,311,376,311,376,376,376,376,374,376,376,311,374,375,311,374,376,374,376,311,375,376,376,375,
375,375,311,311,376,311,374,374,376,374,374,375,311,376,375,376,375,311,375,374,376,311,311,311,376,374,374,311,374,376,311,375,311,374,375,375,375,374,311,375,375,376,376,374,374,376,311,374,376,374,311,375,311,311,376,376,375,376,376,376,374,311,376,374,375,374,375,376,375,375,376,374,374,374,311,376,375,375,311,375,376,311,311,376,376,311,375,311,375,374,376,374,374,376,376,374,376,375,311,311,
374,374,375,311,311,375,376,376,311,374,375,311,374,375,374,374,374,374,311,311,374,375,375,311,375,375,374,311,375,311,376,376,375,376,374,376,375,375,374,375,376,376,375,376,374,376,311,376,376,376,374,374,311,374,376,376,376,311,375,311,375,374,376,375,374,374,374,375,311,376,311,311,376,311,375,311,375,376,375,375,375,311,376,374,376,376,374,311,374,374,376,374,375,374,375,311,375,311,374,376,
375,376,311,375,375,375,374,375,311,375,374,311,375,311,374,376,376,311,375,374,311,376,376,374,375,375,311,311,374,311,311,375,375,375,375,375,376,376,374,374,311,376,311,376,311,311,374,375,311,374,376,374,374,311,375,374,374,376,375,311,374,311,311,375,375,374,374,375,376,375,375,376,311,376,311,311,376,311,375,311,374,311,374,375,376,374,375,375,376,311,311,374,375,374,311,374,376,376,374,374,
375,311,375,374,376,375,375,374,376,374,375,374,311,311,376,311,375,374,376,374,376,311,376,375,376,375,376,375,311,374,376,311,375,375,311,311,375,375,311,311,311,311,374,311,376,376,375,376,374,376,376,375,376,376,376,374,374,374,376,376,374,376,311,311,311,376,374,374,374,374,311,376,376,374,376,376,375,311,375,376,374,311,311,374,376,311,374,311,376,311,375,374,375,376,376,376,311,374,376,374,
375,374,374,374,374,376,375,311,311,311,376,376,311,374,374,311,375,374,376,374,375,311,375,376,376,375,311,375,376,311,374,311,311,311,311,375,311,374,375,374,374,375,376,375,374,311,311,375,376,374,375,375,376,374,311,311,376,374,311,374,375,374,311,374,374,376,374,376,375,374,374,374,375,311,374,375,376,375,311,374,374,374,374,311,374,376,374,375,375,374,376,311,376,376,374,311,374,374,375,376,
374,375,311,374,376,374,374,376,374,375,311,375,311,311,374,374,376,311,376,376,311,374,374,376,311,311,375,376,311,375,375,375,376,311,374,376,375,376,311,311,375,376,374,374,374,376,376,374,311,311,375,374,374,375,374,311,376,311,374,376,311,376,376,311,376,375,311,311,374,374,311,376,376,374,375,374,375,376,375,374,375,375,376,375,376,311,374,375,374,376,375,376,374,374,311,311,376,374,375,311,
375,375,375,375,311,375,374,376,311,375,374,375,374,376,374,375,311,376,311,374,376,375,375,375,374,376,374,375,376,374,375,374,311,375,374,376,311,311,376,311,375,374,374,374,374,375,374,376,374,311,374,374,376,376,374,375,311,311,311,311,311,311,376,311,376,376,376,376,311,375,375,375,376,374,311,375,376,311,374,375,376,311,311,374,376,375,311,311,374,375,374,374,311,376,375,374,374,375,311,311,
375,376,375,311,376,374,311,374,375,375,374,376,374,375,374,374,375,375,311,376,311,311,376,376,374,311,376,374,376,376,375,311,311,311,376,375,311,376,374,376,376,374,311,376,375,375,374,374,374,376,374,374,376,375,376,374,311,311,311,311,311,375,374,311,374,376,374,374,376,374,374,376,374,375,376,375,374,374,374,376,374,376,375,374,311,311,376,311,311,376,311,375,374,376,376,374,375,311,311,376,
374,376,374,374,376,311,375,376,375,374,376,376,311,374,311,376,375,376,311,311,374,374,375,311,375,376,376,311,311,375,376,374,311,375,375,375,375,374,311,376,374,376,375,375,375,374,311,375,376,376,374,374,374,311,374,375,311,375,376,311,311,374,374,376,375,376,374,375,311,375,375,376,311,311,374,311,374,376,311,375,311,375,374,311,311,311,374,374,311,375,376,376,375,374,375,311,311,311,311,374,
375,311,374,374,375,374,376,375,374,374,376,375,374,375,374,375,374,375,375,376,374,374,376,375,311,375,311,376,376,375,374,311,311,376,376,375,311,375,375,376,376,374,375,311,376,375,374,311,374,311,374,375,375,376,376,311,374,311,311,311,311,376,374,374,311,375,375,375,311,311,374,375,376,311,375,374,311,311,374,375,375,375,311,374,376,311,375,311,374,311,375,376,376,311,311,374,311,376,376,376,
374,374,374,375,374,374,374,311,311,311,311,376,374,376,374,374,311,375,311,374,375,375,376,375,375,311,374,311,376,375,376,375,374,375,374,311,374,375,374,311,311,374,375,311,375,376,376,376,311,375,376,376,375,374,375,374,374,375,375,376,375,375,375,374,374,311,374,375,375,311,376,374,374,375,375,375,374,374,376,376,375,375,376,375,375,311,311,375,376,311,311,311,374,374,311,375,375,374,374,374,
376,375,376,374,311,374,374,375,376,375,376,375,311,375,375,311,376,375,375,374,375,375,311,311,374,374,376,375,376,375,374,376,376,376,376,376,375,311,311,376,375,311,311,311,375,374,375,311,374,376,376,374,374,375,375,374,375,375,311,311,376,311,374,374,376,311,376,311,375,376,376,311,375,375,376,311,376,311,375,376,374,376,374,311,374,311,374,374,375,376,374,374,375,376,376,376,374,374,375,311,
375,311,375,375,376,375,375,311,375,311,375,374,374,375,311,374,375,376,375,375,374,311,311,374,374,376,311,374,375,311,376,374,311,374,375,311,374,376,376,375,311,375,375,376,374,375,374,374,376,374,311,375,375,375,374,311,375,376,311,375,376,375,375,311,375,375,375,311,311,375,374,374,375,374,376,375,375,311,376,376,376,376,374,374,375,375,375,311,375,376,375,311,375,374,376,311,311,311,311,374,
375,376,376,375,375,376,376,311,376,311,311,375,311,376,376,375,376,374,376,374,311,376,374,376,376,311,376,376,375,376,311,375,375,376,311,376,311,375,374,376,311,374,374,376,374,376,374,311,311,311,375,311,374,311,311,375,376,374,376,375,311,375,374,376,376,374,374,376,376,374,376,374,376,375,376,311,311,374,311,376,376,376,311,311,375,311,376,375,311,374,311,376,376,375,375,375,376,376,375,376,
376,311,311,311,376,374,376,311,311,375,311,311,376,374,311,374,374,311,375,374,374,376,311,374,311,311,374,311,376,376,376,374,374,311,374,311,311,374,376,375,311,311,374,376,375,376,311,375,374,376,376,376,311,374,374,375,376,374,376,374,311,311,376,374,374,376,311,376,375,375,311,375,376,311,376,374,376,375,375,376,311,311,376,375,374,375,376,376,374,376,374,374,311,375,375,376,311,376,311,376,
374,374,375,311,375,311,311,376,311,311,376,375,311,374,376,375,374,311,375,311,311,375,376,311,376,311,375,376,311,374,311,311,376,375,374,376,374,311,375,375,311,376,311,311,311,374,311,374,311,311,376,311,311,374,311,376,376,311,374,376,376,375,374,376,374,375,311,375,375,375,376,376,311,374,376,376,375,374,375,311,311,311,374,376,374,375,374,376,375,376,374,374,374,376,376,376,311,375,376,376,
311,311,375,311,375,376,376,311,374,375,311,311,374,311,311,375,375,375,311,376,311,376,375,374,374,376,374,375,311,311,375,374,376,375,374,376,375,375,374,311,375,375,376,376,311,374,376,375,374,374,376,374,375,376,311,376,374,374,375,375,375,375,376,311,311,374,374,374,311,311,375,375,375,374,374,374,376,376,374,375,375,376,374,311,374,311,374,374,311,375,375,374,374,376,375,376,376,311,374,374,
311,375,375,311,376,376,376,374,376,375,311,374,375,376,311,311,375,375,374,374,374,375,375,376,375,375,376,376,375,376,374,376,374,375,374,374,374,374,374,311,376,376,376,374,374,374,374,376,311,375,311,376,375,376,374,376,376,376,376,374,375,374,374,374,311,375,311,376,374,375,376,375,311,376,376,374,375,311,311,376,311,375,376,376,375,376,374,375,374,311,375,376,376,376,376,375,311,376,376,375,
376,376,375,375,374,376,311,311,374,376,375,374,375,376,311,376,375,311,311,311,374,374,375,374,375,311,376,374,376,311,374,311,374,311,376,376,374,376,311,374,376,375,376,376,376,374,311,376,374,374,376,374,375,311,375,376,375,311,311,375,376,374,375,311,311,376,376,374,376,375,376,376,375,374,376,311,374,374,374,376,375,376,375,376,311,375,311,375,375,374,376,375,374,374,375,374,311,311,376,311,
375,374,374,374,374,374,374,375,376,376,374,374,374,374,376,374,311,374,374,311,311,374,374,374,374,376,375,311,374,311,376,375,376,376,311,376,376,374,374,374,311,311,376,375,311,376,376,375,376,311,374,374,374,374,374,374,374,375,311,375,374,375,374,311,375,375,375,375,375,311,374,374,376,376,376,376,375,375,374,376,375,375,311,311,374,311,375,376,374,374,376,374,375,376,374,311,375,311,376,374,
374,311,311,375,375,376,374,311,375,311,376,311,375,311,376,311,374,311,374,375,376,374,374,311,311,376,311,375,375,311,376,375,311,375,375,375,375,311,311,311,311,374,375,376,311,376,311,376,375,374,374,375,376,374,374,311,375,374,376,311,376,374,376,374,376,376,374,376,311,375,374,376,311,374,376,374,374,311,311,311,376,375,376,375,376,376,374,375,311,311,376,375,311,375,375,311,375,374,374,311,
375,311,311,374,376,375,311,374,375,311,376,375,375,376,374,376,311,311,375,376,374,375,376,376,375,375,311,375,375,311,375,375,376,374,376,375,376,311,311,311,376,374,311,376,374,375,376,311,374,375,374,374,376,311,374,375,374,311,375,375,374,375,311,374,375,374,376,374,376,374,375,374,311,311,375,376,376,375,311,311,311,374,376,376,376,375,376,375,375,375,375,374,376,311,375,374,375,374,374,375,
375,374,376,374,375,374,376,311,375,376,311,375,375,375,375,311,375,375,375,376,375,311,375,376,311,311,374,311,375,311,375,375,375,375,375,376,375,374,311,311,311,311,375,376,374,311,376,311,311,374,375,376,311,375,374,374,374,376,374,374,376,374,374,311,374,311,375,374,375,375,375,374,375,374,311,376,375,374,311,376,374,376,311,374,311,375,311,376,374,311,374,311,374,311,374,374,375,311,374,375,
374,374,376,375,375,311,374,374,311,375,311,374,311,374,376,374,311,376,311,374,376,374,374,376,375,374,311,375,375,311,374,376,376,376,376,375,375,374,375,376,375,376,376,311,311,311,311,375,376,374,311,311,376,375,376,376,374,374,311,375,311,311,311,311,374,311,375,375,375,376,374,375,376,375,311,375,374,374,376,374,311,376,376,311,376,375,376,374,311,375,311,376,375,311,311,375,375,376,375,375,
311,311,374,376,311,311,311,311,374,374,376,311,376,374,375,311,374,311,311,375,376,374,374,374,374,375,374,375,375,375,375,311,376,374,375,311,374,374,376,374,376,311,375,374,374,375,375,311,311,375,376,376,311,311,311,374,311,374,375,311,375,376,311,311,374,375,374,375,375,311,376,374,376,376,311,311,311,374,311,376,375,376,374,375,311,374,374,376,374,376,376,311,311,374,311,376,376,311,375,374,
376,311,311,376,374,311,374,311,374,374,375,375,375,311,375,376,375,374,374,376,375,311,376,374,311,375,311,375,376,375,374,375,375,311,374,375,375,311,376,375,375,375,375,311,374,376,375,374,311,375,374,376,375,376,374,374,311,311,374,311,374,375,375,375,375,375,311,376,374,376,375,375,374,311,375,374,376,376,375,311,376,374,376,375,374,311,375,375,311,376,376,374,311,376,311,311,311,375,374,375,
311,375,311,374,375,376,376,376,375,311,376,374,311,374,376,376,311,375,375,311,375,374,374,311,375,376,375,375,375,376,376,375,311,375,375,374,374,375,376,374,374,375,375,374,311,374,374,374,311,311,311,375,374,375,311,374,376,375,376,374,375,376,375,311,376,376,374,375,374,311,376,374,374,375,374,374,374,375,311,375,376,376,374,375,374,374,376,376,375,311,311,375,374,375,374,374,374,374,376,311,
374,311,376,375,375,311,376,374,375,376,375,311,375,375,311,374,375,374,311,376,311,374,374,375,375,376,374,374,375,376,311,311,376,375,374,311,376,374,374,376,374,376,311,374,375,376,376,375,311,375,374,376,311,375,311,376,374,374,374,374,374,311,374,311,311,375,375,311,311,375,376,375,311,376,311,311,374,375,376,311,374,374,376,374,376,311,375,311,311,375,374,311,374,375,376,375,376,311,375,374,
376,374,374,311,374,311,375,376,376,311,311,376,374,311,376,311,311,376,374,374,374,311,376,376,376,374,375,374,375,374,374,311,376,374,311,374,375,376,311,375,311,374,375,376,376,375,311,311,375,311,376,311,374,376,376,311,375,311,376,311,374,311,311,374,375,376,375,376,374,311,375,311,374,311,374,375,375,374,311,376,376,375,311,311,376,376,375,374,374,311,374,374,376,376,311,375,374,374,376,311,
374,311,376,375,311,311,376,311,374,311,374,376,374,376,374,376,374,374,376,376,376,376,311,374,311,375,311,375,375,375,311,376,374,311,375,374,375,375,375,311,311,375,311,374,311,374,376,376,375,376,375,376,311,375,376,376,376,311,375,375,311,375,376,376,376,375,376,375,375,375,311,374,374,374,375,375,311,374,376,374,311,375,375,375,374,311,376,375,376,311,374,376,311,376,375,376,311,374,376,376,
376,311,375,375,375,376,311,375,375,376,374,375,374,376,375,311,311,375,311,374,374,376,311,376,376,374,311,376,376,375,311,376,375,374,374,311,375,375,311,311,374,376,376,376,374,375,376,374,311,375,375,311,311,311,374,311,374,374,374,374,311,311,311,311,375,311,311,374,376,311,374,374,376,375,375,311,374,374,374,311,375,375,376,311,376,376,374,374,374,374,376,376,374,375,311,311,311,376,311,311,
374,311,374,311,376,374,311,375,376,374,375,376,375,376,374,376,311,375,311,375,374,374,376,376,376,375,311,376,376,375,311,374,311,376,376,374,375,376,311,374,311,375,376,311,376,374,376,376,374,311,374,374,311,311,375,374,311,376,376,311,311,376,311,376,374,311,375,375,376,374,375,311,375,374,374,311,375,374,376,311,311,375,311,374,374,374,375,374,311,375,376,311,375,374,375,375,374,375,376,375,
374,374,376,374,374,376,376,311,374,311,376,374,376,374,374,374,375,375,375,374,374,311,374,376,376,375,311,311,311,374,374,311,374,375,311,311,376,375,376,374,375,374,374,376,374,375,311,376,311,311,311,376,374,376,311,375,374,375,311,376,375,311,311,311,374,311,375,376,311,375,376,376,311,311,376,311,376,311,376,376,311,311,311,375,374,311,374,374,376,376,374,374,374,376,374,375,375,374,374,375,
311,376,375,375,374,374,375,376,375,376,374,375,374,374,376,375,374,376,311,311,374,311,374,376,376,375,376,375,374,374,311,311,375,376,375,375,376,311,375,311,374,311,311,374,375,374,376,376,374,374,376,311,311,311,376,311,374,376,374,376,374,374,374,375,374,375,376,374,311,374,375,375,376,374,311,376,376,311,376,311,376,374,374,376,374,374,311,376,311,376,376,311,311,375,375,376,376,311,376,375,
374,374,311,374,311,376,375,311,311,311,311,376,376,374,311,311,375,376,375,311,311,374,376,374,375,374,375,311,375,375,311,374,375,374,375,376,376,374,375,311,311,376,311,375,374,375,374,375,375,374,375,376,376,375,374,376,374,376,374,375,375,375,375,375,374,374,374,375,374,375,375,311,376,375,375,374,374,311,311,375,374,374,311,374,311,376,375,374,311,311,375,311,375,376,376,374,376,376,311,374,
311,375,375,311,375,376,374,376,376,311,311,374,376,311,375,374,311,374,375,374,375,311,374,375,376,375,374,374,375,374,311,375,375,311,376,376,376,311,376,311,374,376,375,375,311,374,375,375,375,311,376,311,374,376,311,311,375,375,375,311,375,374,374,375,376,376,311,375,311,376,311,376,311,376,376,376,374,311,374,311,376,374,375,375,374,376,375,375,374,374,374,311,375,375,311,376,375,376,375,375,
375,376,375,376,374,376,376,374,311,311,311,311,374,375,376,311,375,375,375,374,376,311,375,376,374,375,375,376,311,375,375,374,311,374,374,376,376,375,311,311,376,375,375,311,375,311,375,375,311,374,375,375,374,374,374,311,374,375,311,374,311,376,311,374,375,375,311,374,375,374,311,374,375,311,376,375,375,374,376,376,376,311,375,374,311,311,376,374,375,311,374,374,375,375,375,376,374,375,375,376,
375,374,374,374,311,311,374,375,375,374,311,311,374,311,375,374,375,375,376,374,375,376,374,375,376,375,374,311,311,375,375,374,375,375,376,375,311,374,376,311,375,375,376,375,374,311,376,311,374,375,375,375,311,374,311,375,374,311,375,376,374,311,374,376,374,375,376,374,375,376,311,375,376,376,376,375,311,311,376,374,376,376,375,375,375,375,311,311,376,376,375,311,311,375,376,311,376,375,376,374,
375,376,375,374,375,374,376,311,374,311,375,311,311,374,376,311,376,376,374,311,311,375,374,376,311,376,375,311,376,375,374,376,376,374,311,376,374,374,376,374,375,374,376,374,376,374,375,376,376,375,376,375,376,311,376,311,374,376,375,376,311,311,376,311,311,374,376,311,375,374,376,311,311,375,374,311,311,375,311,375,375,375,374,311,376,375,311,311,311,374,375,375,374,375,374,311,311,376,376,311,
311,374,375,374,374,311,376,376,374,311,374,375,376,376,374,376,375,311,374,374,376,375,311,376,376,311,376,375,375,311,311,374,374,311,376,311,374,311,374,311,375,311,311,376,375,374,311,376,374,374,375,311,374,376,376,376,376,374,376,375,374,311,374,374,311,311,311,375,374,376,374,376,375,374,376,374,311,374,376,311,374,374,374,376,375,375,376,375,376,375,374,375,376,374,375,311,376,375,376,311,
376,375,376,375,374,374,375,374,374,311,375,374,311,311,376,374,375,311,374,374,311,375,311,374,374,375,374,311,311,311,311,375,374,376,375,311,375,376,375,376,311,375,376,375,374,376,311,311,374,311,375,375,375,375,375,311,376,375,374,311,374,375,375,375,311,311,374,375,374,311,311,374,376,375,375,375,311,374,311,374,374,311,375,376,375,374,374,374,376,311,311,374,311,376,375,311,376,374,311,376,
375,311,375,376,375,374,375,375,375,376,375,311,374,376,311,376,376,374,376,311,311,375,374,374,375,376,374,376,376,374,376,311,375,376,374,376,374,375,311,311,375,375,311,311,374,375,375,375,374,376,374,374,311,375,375,374,376,311,311,376,376,375,376,375,375,311,311,311,311,311,311,375,374,311,375,375,376,374,311,311,311,311,376,311,376,374,375,311,374,376,376,375,375,374,374,311,311,311,311,374
</data>
 </layer>
 <layer id="2" name="top" width="100" height="100">
  <data encoding="csv">
0,0,0,0,0,0,0,0,0,0,0,0,0,0,0,0,0,0,0,0,0,0,0,0,0,0,0,0,0,0,0,0,0,0,0,0,0,0,0,0,0,0,0,0,0,0,0,0,0,0,0,0,0,0,0,0,0,0,0,0,0,0,0,0,0,0,0,0,0,0,0,0,0,0,0,0,0,0,0,0,0,0,0,0,0,0,0,0,0,0,0,0,0,0,0,0,0,0,0,0,
0,0,397,398,0,0,0,0,0,0,0,0,0,0,0,0,0,0,0,0,0,0,0,0,0,0,0,0,0,0,0,0,0,0,0,0,0,0,0,0,0,0,0,0,0,0,0,0,0,0,0,0,0,0,0,0,0,0,0,0,0,0,0,0,0,0,0,0,0,0,0,0,0,0,0,0,0,0,0,0,0,0,0,0,0,0,0,0,0,0,0,0,0,0,0,0,0,0,0,0,
0,0,429,430,0,0,397,398,0,0,0,0,0,0,0,0,0,0,0,0,0,0,0,0,0,0,0,0,0,0,0,0,0,0,0,0,0,0,0,0,0,0,0,0,0,0,0,0,0,0,0,0,0,0,0,0,0,0,0,0,0,0,0,0,0,0,0,0,0,0,0,0,0,0,0,0,0,0,0,0,0,0,0,0,0,0,0,0,0,0,0,0,0,0,0,0,0,0,0,0,
0,0,0,0,0,0,429,430,0,0,0,0,0,0,0,0,0,0,0,0,0,0,0,0,0,0,0,0,0,0,0,0,0,0,0,0,0,0,0,0,0,0,0,0,0,0,0,0,0,0,0,0,0,0,0,0,0,0,0,0,0,0,0,0,0,0,0,0,0,0,0,0,0,0,0,0,0,0,0,0,0,0,0,0,0,0,0,0,0,0,0,0,0,0,0,0,0,0,0,0,
0,0,31,32,0,0,0,0,0,0,0,0,0,0,0,0,0,0,0,0,0,0,0,0,0,0,0,0,0,0,0,0,0,0,0,0,0,0,0,0,0,0,0,0,0,0,0,0,0,0,0,0,0,0,0,0,0,0,0,0,0,0,0,0,0,0,0,0,0,0,0,0,0,0,0,0,0,0,0,0,0,0,0,0,0,0,0,0,0,0,0,0,0,0,0,0,0,0,0,0,
0,0,63,64,0,0,0,0,0,0,0,0,0,0,0,0,0,0,0,0,0,0,0,0,0,0,0,0,0,0,0,0,0,0,0,0,0,0,0,0,0,0,0,0,0,0,0,0,0,0,0,0,0,0,0,0,0,0,0,0,0,0,0,0,0,0,0,0,0,0,0,0,0,0,0,0,0,0,0,0,0,0,0,0,0,0,0,0,0,0,0,0,0,0,0,0,0,0,0,0,
0,0,95,96,0,0,0,0,0,0,0,0,0,0,0,0,0,0,0,0,0,0,0,0,0,0,0,0,0,0,0,0,0,0,0,0,0,0,0,0,0,0,0,0,0,0,0,0,0,0,0,0,0,0,0,0,0,0,0,0,0,0,0,0,0,0,0,0,0,0,0,0,0,0,0,0,0,0,0,0,0,0,0,0,0,0,0,0,0,0,0,0,0,0,0,0,0,0,0,0,
0,0,127,128,0,0,0,0,0,0,0,0,0,0,0,0,0,0,0,0,0,0,0,0,0,0,0,0,0,0,0,0,0,0,0,0,0,0,0,0,0,0,0,0,0,0,0,0,0,0,0,0,0,0,0,0,0,0,0,0,0,0,0,0,0,0,0,0,0,0,0,0,0,0,0,0,0,0,0,0,0,0,0,0,0,0,0,0,0,0,0,0,0,0,0,0,0,0,0,0,
0,0,159,160,0,0,0,0,0,0,0,0,0,0,0,0,0,0,0,0,0,0,0,0,0,0,0,0,0,0,0,0,0,0,0,0,0,0,0,0,0,0,0,0,0,0,0,0,0,0,0,0,0,0,0,0,0,0,0,0,0,0,0,0,0,0,0,0,0,0,0,0,0,0,0,0,0,0,0,0,0,0,0,0,0,0,0,0,0,0,0,0,0,0,0,0,0,0,0,0,
0,0,0,0,0,0,781,0,0,0,0,0,0,0,0,0,0,0,0,0,0,0,0,0,0,0,0,0,0,0,0,0,0,0,0,0,0,0,0,0,0,0,0,0,0,0,0,0,0,0,0,0,0,0,0,0,0,0,0,0,0,0,0,0,0,0,0,0,0,0,0,0,0,0,0,0,0,0,0,0,0,0,0,0,0,0,0,0,0,0,0,0,0,0,0,0,0,0,0,0,
0,0,0,0,0,0,0,0,0,0,0,0,0,0,0,0,0,0,0,0,0,0,0,0,0,0,0,0,0,0,0,0,0,0,0,0,0,0,0,0,0,0,0,0,0,0,0,0,0,0,0,0,0,0,0,0,0,0,0,0,0,0,0,0,0,0,0,0,0,0,0,0,0,0,0,0,0,0,0,0,0,0,0,0,0,0,0,0,0,0,0,0,0,0,0,0,0,0,0,0,
0,0,0,0,781,0,0,781,0,0,0,0,0,0,0,0,0,0,0,0,0,0,0,0,0,0,0,0,0,0,0,0,0,0,0,0,0,0,0,0,0,0,0,0,0,0,0,0,0,0,0,0,0,0,0,0,0,0,0,0,0,0,0,0,0,0,0,0,0,0,0,0,0,0,0,0,0,0,0,0,0,0,0,0,0,0,0,0,0,0,0,0,0,0,0,0,0,0,0,0,
0,0,0,0,0,0,0,0,0,0,0,0,0,0,0,0,0,0,0,0,0,0,0,0,0,0,0,0,0,0,0,0,0,0,0,0,0,0,0,0,0,0,0,0,0,0,0,0,0,0,0,0,0,0,0,0,0,0,0,0,0,0,0,0,0,0,0,0,0,0,0,0,0,0,0,0,0,0,0,0,0,0,0,0,0,0,0,0,0,0,0,0,0,0,0,0,0,0,0,0,
0,0,0,0,0,0,0,0,0,0,0,0,0,0,0,0,0,0,0,0,0,0,0,0,0,0,0,0,0,0,0,0,0,0,0,0,0,0,0,0,0,0,0,0,0,0,0,0,0,0,0,0,0,0,0,0,0,0,0,0,0,0,0,0,0,0,0,0,0,0,0,0,0,0,0,0,0,0,0,0,0,0,0,0,0,0,0,0,0,0,0,0,0,0,0,0,0,0,0,0,
0,0,0,0,0,0,0,0,0,0,0,0,0,0,0,0,0,0,0,0,0,0,0,0,0,0,0,0,0,0,0,0,0,0,0,0,0,0,0,0,0,0,0,0,0,0,0,0,0,0,0,0,0,0,0,0,0,0,0,0,0,0,0,0,0,0,0,0,0,0,0,0,0,0,0,0,0,0,0,0,0,0,0,0,0,0,0,0,0,0,0,0,0,0,0,0,0,0,0,0,
0,0,0,0,0,0,0,0,0,0,0,0,0,0,0,0,0,0,0,0,0,0,0,0,0,0,0,0,0,0,0,0,0,0,0,0,0,0,0,0,0,0,0,0,0,0,0,0,0,0,0,0,0,0,0,0,0,0,0,0,0,0,0,0,0,0,0,0,0,0,0,0,0,0,0,0,0,0,0,0,0,0,0,0,0,0,0,0,0,0,0,0,0,0,0,0,0,0,0,0,
0,0,0,0,0,0,0,0,0,0,0,0,0,0,0,0,0,0,0,0,0,0,0,0,0,0,0,0,0,0,0,0,0,0,0,0,0,0,0,0,0,0,0,0,0,0,0,0,0,0,0,0,0,0,0,0,0,0,0,0,0,0,0,0,0,0,0,0,0,0,0,0,0,0,0,0,0,0,0,0,0,0,0,0,0,0,0,0,0,0,0,0,0,0,0,0,0,0,0,0,
0,0,0,0,0,0,0,0,0,0,0,0,0,0,0,0,0,0,0,0,0,0,0,0,0,0,0,0,0,0,0,0,0,0,0,0,0,0,0,0,0,0,0,0,0,0,0,0,0,0,0,0,0,0,0,0,0,0,0,0,0,0,0,0,0,0,0,0,0,0,0,0,0,0,0,0,0,0,0,0,0,0,0,0,0,0,0,0,0,0,0,0,0,0,0,0,0,0,0,0,
0,0,0,0,0,0,0,0,0,0,0,0,0,0,0,0,0,0,0,0,0,0,0,0,0,0,0,0,0,0,0,0,0,0,0,0,0,0,0,0,0,0,0,0,0,0,0,0,0,0,0,0,0,0,0,0,0,0,0,0,0,0,0,0,0,0,0,0,0,0,0,0,0,0,0,0,0,0,0,0,0,0,0,0,0,0,0,0,0,0,0,0,0,0,0,0,0,0,0,0,
0,0,0,0,0,0,0,0,0,0,0,0,0,0,0,0,0,0,0,0,0,0,0,0,0,0,0,0,0,0,0,0,0,0,0,0,0,0,0,0,0,0,0,0,0,0,0,0,0,0,0,0,0,0,0,0,0,0,0,0,0,0,0,0,0,0,0,0,0,0,0,0,0,0,0,0,0,0,0,0,0,0,0,0,0,0,0,0,0,0,0,0,0,0,0,0,0,0,0,0,
0,0,0,0,0,0,0,0,0,0,0,0,0,0,0,0,0,0,0,0,0,0,0,0,0,0,0,0,0,0,0,0,0,0,0,0,0,0,0,0,0,0,0,0,0,0,0,0,0,0,0,0,0,0,0,0,0,0,0,0,0,0,0,0,0,0,0,0,0,0,0,0,0,0,0,0,0,0,0,0,0,0,0,0,0,0,0,0,0,0,0,0,0,0,0,0,0,0,0,0,
0,0,0,0,0,0,0,0,0,0,0,0,0,0,0,0,0,0,0,0,0,0,0,0,0,0,0,0,0,0,0,0,0,0,0,0,0,0,0,0,0,0,0,0,0,0,0,0,0,0,0,0,0,0,0,0,0,0,0,0,0,0,0,0,0,0,0,0,0,0,0,0,0,0,0,0,0,0,0,0,0,0,0,0,0,0,0,0,0,0,0,0,0,0,0,0,0,0,0,0,
0,0,0,0,0,0,0,0,0,0,0,0,0,0,0,0,0,0,0,0,0,0,0,0,0,0,0,0,0,0,0,0,0,0,0,0,0,0,0,0,0,0,0,0,0,0,0,0,0,0,0,0,0,0,0,0,0,0,0,0,0,0,0,0,0,0,0,0,0,0,0,0,0,0,0,0,0,0,0,0,0,0,0,0,0,0,0,0,0,0,0,0,0,0,0,0,0,0,0,0,
0,0,0,0,0,0,0,0,0,0,0,0,0,0,0,0,0,0,0,0,0,0,0,0,0,0,0,0,0,0,0,0,0,0,0,0,0,0,0,0,0,0,0,0,0,0,0,0,0,0,0,0,0,0,0,0,0,0,0,0,0,0,0,0,0,0,0,0,0,0,0,0,0,0,0,0,0,0,0,0,0,0,0,0,0,0,0,0,0,0,0,0,0,0,0,0,0,0,0,0,
0,0,0,0,0,0,0,0,0,0,0,0,0,0,0,0,0,0,0,0,0,0,0,0,0,0,0,0,0,0,0,0,0,0,0,0,0,0,0,0,0,0,0,0,0,0,0,0,0,0,0,0,0,0,0,0,0,0,0,0,0,0,0,0,0,0,0,0,0,0,0,0,0,0,0,0,0,0,0,0,0,0,0,0,0,0,0,0,0,0,0,0,0,0,0,0,0,0,0,0,
0,0,0,0,0,0,0,0,0,0,0,0,0,0,0,0,0,0,0,0,0,0,0,0,0,0,0,0,0,0,0,0,0,0,0,0,0,0,0,0,0,0,0,0,0,0,0,0,0,0,0,0,0,0,0,0,0,0,0,0,0,0,0,0,0,0,0,0,0,0,0,0,0,0,0,0,0,0,0,0,0,0,0,0,0,0,0,0,0,0,0,0,0,0,0,0,0,0,0,0,
0,0,0,0,0,0,0,0,0,0,0,0,0,0,0,0,0,0,0,0,0,0,0,0,0,0,0,0,0,0,0,0,0,0,0,0,0,0,0,0,0,0,0,0,0,0,0,0,0,0,0,0,0,0,0,0,0,0,0,0,0,0,0,0,0,0,0,0,0,0,0,0,0,0,0,0,0,0,0,0,0,0,0,0,0,0,0,0,0,0,0,0,0,0,0,0,0,0,0,0,
0,0,0,0,0,0,0,0,0,0,0,0,0,0,0,0,0,0,0,0,0,0,0,0,0,0,0,0,0,0,0,0,0,0,0,0,0,0,0,0,0,0,0,0,0,0,0,0,0,0,0,0,0,0,0,0,0,0,0,0,0,0,0,0,0,0,0,0,0,0,0,0,0,0,0,0,0,0,0,0,0,0,0,0,0,0,0,0,0,0,0,0,0,0,0,0,0,0,0,0,
0,0,0,0,0,0,0,0,0,0,0,0,0,0,0,0,0,0,0,0,0,0,0,0,0,0,0,0,0,0,0,0,0,0,0,0,0,0,0,0,0,0,0,0,0,0,0,0,0,0,0,0,0,0,0,0,0,0,0,0,0,0,0,0,0,0,0,0,0,0,0,0,0,0,0,0,0,0,0,0,0,0,0,0,0,0,0,0,0,0,0,0,0,0,0,0,0,0,0,0,
0,0,0,0,0,0,0,0,0,0,0,0,0,0,0,0,0,0,0,0,0,0,0,0,0,0,0,0,0,0,0,0,0,0,0,0,0,0,0,0,0,0,0,0,0,0,0,0,0,0,0,0,0,0,0,0,0,0,0,0,0,0,0,0,0,0,0,0,0,0,0,0,0,0,0,0,0,0,0,0,0,0,0,0,0,0,0,0,0,0,0,0,0,0,0,0,0,0,0,0,
0,0,0,0,0,0,0,0,0,0,0,0,0,0,0,0,0,0,0,0,0,0,0,0,0,0,0,0,0,0,0,0,0,0,0,0,0,0,0,0,0,0,0,0,0,0,0,0,0,0,0,0,0,0,0,0,0,0,0,0,0,0,0,0,0,0,0,0,0,0,0,0,0,0,0,0,0,0,0,0,0,0,0,0,0,0,0,0,0,0,0,0,0,0,0,0,0,0,0,0,
0,0,0,0,0,0,0,0,0,0,0,0,0,0,0,0,0,0,0,0,0,0,0,0,0,0,0,0,0,0,0,0,0,0,0,0,0,0,0,0,0,0,0,0,0,0,0,0,0,0,0,0,0,0,0,0,0,0,0,0,0,0,0,0,0,0,0,0,0,0,0,0,0,0,0,0,0,0,0,0,0,0,0,0,0,0,0,0,0,0,0,0,0,0,0,0,0,0,0,0,
0,0,0,0,0,0,0,0,0,0,0,0,0,0,0,0,0,0,0,0,0,0,0,0,0,0,0,0,0,0,0,0,0,0,0,0,0,0,0,0,0,0,0,0,0,0,0,0,0,0,0,0,0,0,0,0,0,0,0,0,0,0,0,0,0,0,0,0,0,0,0,0,0,0,0,0,0,0,0,0,0,0,0,0,0,0,0,0,0,0,0,0,0,0,0,0,0,0,0,0,
0,0,0,0,0,0,0,0,0,0,0,0,0,0,0,0,0,0,0,0,0,0,0,0,0,0,0,0,0,0,0,0,0,0,0,0,0,0,0,0,0,0,0,0,0,0,0,0,0,0,0,0,0,0,0,0,0,0,0,0,0,0,0,0,0,0,0,0,0,0,0,0,0,0,0,0,0,0,0,0,0,0,0,0,0,0,0,0,0,0,0,0,0,0,0,0,0,0,0,0,
0,0,0,0,0,0,0,0,0,0,0,0,0,0,0,0,0,0,0,0,0,0,0,0,0,0,0,0,0,0,0,0,0,0,0,0,0,0,0,0,0,0,0,0,0,0,0,0,0,0,0,0,0,0,0,0,0,0,0,0,0,0,0,0,0,0,0,0,0,0,0,0,0,0,0,0,0,0,0,0,0,0,0,0,0,0,0,0,0,0,0,0,0,0,0,0,0,0,0,0,
0,0,0,0,0,0,0,0,0,0,0,0,0,0,0,0,0,0,0,0,0,0,0,0,0,0,0,0,0,0,0,0,0,0,0,0,0,0,0,0,0,0,0,0,0,0,0,0,0,0,0,0,0,0,0,0,0,0,0,0,0,0,0,0,0,0,0,0,0,0,0,0,0,0,0,0,0,0,0,0,0,0,0,0,0,0,0,0,0,0,0,0,0,0,0,0,0,0,0,0,
0,0,0,0,0,0,0,0,0,0,0,0,0,0,0,0,0,0,0,0,0,0,0,0,0,0,0,0,0,0,0,0,0,0,0,0,0,0,0,0,0,0,0,0,0,0,0,0,0,0,0,0,0,0,0,0,0,0,0,0,0,0,0,0,0,0,0,0,0,0,0,0,0,0,0,0,0,0,0,0,0,0,0,0,0,0,0,0,0,0,0,0,0,0,0,0,0,0,0,0,
0,0,0,0,0,0,0,0,0,0,0,0,0,0,0,0,0,0,0,0,0,0,0,0,0,0,0,0,0,0,0,0,0,0,0,0,0,0,0,0,0,0,0,0,0,0,0,0,0,0,0,0,0,0,0,0,0,0,0,0,0,0,0,0,0,0,0,0,0,0,0,0,0,0,0,0,0,0,0,0,0,0,0,0,0,0,0,0,0,0,0,0,0,0,0,0,0,0,0,0,
0,0,0,0,0,0,0,0,0,0,0,0,0,0,0,0,0,0,0,0,0,0,0,0,0,0,0,0,0,0,0,0,0,0,0,0,0,0,0,0,0,0,0,0,0,0,0,0,0,0,0,0,0,0,0,0,0,0,0,0,0,0,0,0,0,0,0,0,0,0,0,0,0,0,0,0,0,0,0,0,0,0,0,0,0,0,0,0,0,0,0,0,0,0,0,0,0,0,0,0,
0,0,0,0,0,0,0,0,0,0,0,0,0,0,0,0,0,0,0,0,0,0,0,0,0,0,0,0,0,0,0,0,0,0,0,0,0,0,0,0,0,0,0,0,0,0,0,0,0,0,0,0,0,0,0,0,0,0,0,0,0,0,0,0,0,0,0,0,0,0,0,0,0,0,0,0,0,0,0,0,0,0,0,0,0,0,0,0,0,0,0,0,0,0,0,0,0,0,0,0,
0,0,0,0,0,0,0,0,0,0,0,0,0,0,0,0,0,0,0,0,0,0,0,0,0,0,0,0,0,0,0,0,0,0,0,0,0,0,0,0,0,0,0,0,0,0,0,0,0,0,0,0,0,0,0,0,0,0,0,0,0,0,0,0,0,0,0,0,0,0,0,0,0,0,0,0,0,0,0,0,0,0,0,0,0,0,0,0,0,0,0,0,0,0,0,0,0,0,0,0,
0,0,0,0,0,0,0,0,0,0,0,0,0,0,0,0,0,0,0,0,0,0,0,0,0,0,0,0,0,0,0,0,0,0,0,0,0,0,0,0,0,0,0,0,0,0,0,0,0,0,0,0,0,0,0,0,0,0,0,0,0,0,0,0,0,0,0,0,0,0,0,0,0,0,0,0,0,0,0,0,0,0,0,0,0,0,0,0,0,0,0,0,0,0,0,0,0,0,0,0,
0,0,0,0,0,0,0,0,0,0,0,0,0,0,0,0,0,0,0,0,0,0,0,0,0,0,0,0,0,0,0,0,0,0,0,0,0,0,0,0,0,0,0,0,0,0,0,0,0,0,0,0,0,0,0,0,0,0,0,0,0,0,0,0,0,0,0,0,0,0,0,0,0,0,0,0,0,0,0,0,0,0,0,0,0,0,0,0,0,0,0,0,0,0,0,0,0,0,0,0,
0,0,0,0,0,0,0,0,0,0,0,0,0,0,0,0,0,0,0,0,0,0,0,0,0,0,0,0,0,0,0,0,0,0,0,0,0,0,0,0,0,0,0,0,0,0,0,0,0,0,0,0,0,0,0,0,0,0,0,0,0,0,0,0,0,0,0,0,0,0,0,0,0,0,0,0,0,0,0,0,0,0,0,0,0,0,0,0,0,0,0,0,0,0,0,0,0,0,0,0,
0,0,0,0,0,0,0,0,0,0,0,0,0,0,0,0,0,0,0,0,0,0,0,0,0,0,0,0,0,0,0,0,0,0,0,0,0,0,0,0,0,0,0,0,0,0,0,0,0,0,0,0,0,0,0,0,0,0,0,0,0,0,0,0,0,0,0,0,0,0,0,0,0,0,0,0,0,0,0,0,0,0,0,0,0,0,0,0,0,0,0,0,0,0,0,0,0,0,0,0,
0,0,0,0,0,0,0,0,0,0,0,0,0,0,0,0,0,0,0,0,0,0,0,0,0,0,0,0,0,0,0,0,0,0,0,0,0,0,0,0,0,0,0,0,0,0,0,0,0,0,0,0,0,0,0,0,0,0,0,0,0,0,0,0,0,0,0,0,0,0,0,0,0,0,0,0,0,0,0,0,0,0,0,0,0,0,0,0,0,0,0,0,0,0,0,0,0,0,0,0,
0,0,0,0,0,0,0,0,0,0,0,0,0,0,0,0,0,0,0,0,0,0,0,0,0,0,0,0,0,0,0,0,0,0,0,0,0,0,0,0,0,0,0,0,0,0,0,0,0,0,0,0,0,0,0,0,0,0,0,0,0,0,0,0,0,0,0,0,0,0,0,0,0,0,0,0,0,0,0,0,0,0,0,0,0,0,0,0,0,0,0,0,0,0,0,0,0,0,0,0,
0,0,0,0,0,0,0,0,0,0,0,0,0,0,0,0,0,0,0,0,0,0,0,0,0,0,0,0,0,0,0,0,0,0,0,0,0,0,0,0,0,0,0,0,0,0,0,0,0,0,0,0,0,0,0,0,0,0,0,0,0,0,0,0,0,0,0,0,0,0,0,0,0,0,0,0,0,0,0,0,0,0,0,0,0,0,0,0,0,0,0,0,0,0,0,0,0,0,0,0,
0,0,0,0,0,0,0,0,0,0,0,0,0,0,0,0,0,0,0,0,0,0,0,0,0,0,0,0,0,0,0,0,0,0,0,0,0,0,0,0,0,0,0,0,0,0,0,0,0,0,0,0,0,0,0,0,0,0,0,0,0,0,0,0,0,0,0,0,0,0,0,0,0,0,0,0,0,0,0,0,0,0,0,0,0,0,0,0,0,0,0,0,0,0,0,0,0,0,0,0,
0,0,0,0,0,0,0,0,0,0,0,0,0,0,0,0,0,0,0,0,0,0,0,0,0,0,0,0,0,0,0,0,0,0,0,0,0,0,0,0,0,0,0,0,0,0,0,0,0,0,0,0,0,0,0,0,0,0,0,0,0,0,0,0,0,0,0,0,0,0,0,0,0,0,0,0,0,0,0,0,0,0,0,0,0,0,0,0,0,0,0,0,0,0,0,0,0,0,0,0,
0,0,0,0,0,0,0,0,0,0,0,0,0,0,0,0,0,0,0,0,0,0,0,0,0,0,0,0,0,0,0,0,0,0,0,0,0,0,0,0,0,0,0,0,0,0,0,0,0,0,0,0,0,0,0,0,0,0,0,0,0,0,0,0,0,0,0,0,0,0,0,0,0,0,0,0,0,0,0,0,0,0,0,0,0,0,0,0,0,0,0,0,0,0,0,0,0,0,0,0,
0,0,0,0,0,0,0,0,0,0,0,0,0,0,0,0,0,0,0,0,0,0,0,0,0,0,0,0,0,0,0,0,0,0,0,0,0,0,0,0,0,0,0,0,0,0,0,0,0,0,0,0,0,0,0,0,0,0,0,0,0,0,0,0,0,0,0,0,0,0,0,0,0,0,0,0,0,0,0,0,0,0,0,0,0,0,0,0,0,0,0,0,0,0,0,0,0,0,0,0,
0,0,0,0,0,0,0,0,0,0,0,0,0,0,0,0,0,0,0,0,0,0,0,0,0,0,0,0,0,0,0,0,0,0,0,0,0,0,0,0,0,0,0,0,0,0,0,0,0,0,0,0,0,0,0,0,0,0,0,0,0,0,0,0,0,0,0,0,0,0,0,0,0,0,0,0,0,0,0,0,0,0,0,0,0,0,0,0,0,0,0,0,0,0,0,0,0,0,0,0,
0,0,0,0,0,0,0,0,0,0,0,0,0,0,0,0,0,0,0,0,0,0,0,0,0,0,0,0,0,0,0,0,0,0,0,0,0,0,0,0,0,0,0,0,0,0,0,0,0,0,0,0,0,0,0,0,0,0,0,0,0,0,0,0,0,0,0,0,0,0,0,0,0,0,0,0,0,0,0,0,0,0,0,0,0,0,0,0,0,0,0,0,0,0,0,0,0,0,0,0,
0,0,0,0,0,0,0,0,0,0,0,0,0,0,0,0,0,0,0,0,0,0,0,0,0,0,0,0,0,0,0,0,0,0,0,0,0,0,0,0,0,0,0,0,0,0,0,0,0,0,0,0,0,0,0,0,0,0,0,0,0,0,0,0,0,0,0,0,0,0,0,0,0,0,0,0,0,0,0,0,0,0,0,0,0,0,0,0,0,0,0,0,0,0,0,0,0,0,0,0,
0,0,0,0,0,0,0,0,0,0,0,0,0,0,0,0,0,0,0,0,0,0,0,0,0,0,0,0,0,0,0,0,0,0,0,0,0,0,0,0,0,0,0,0,0,0,0,0,0,0,0,0,0,0,0,0,0,0,0,0,0,0,0,0,0,0,0,0,0,0,0,0,0,0,0,0,0,0,0,0,0,0,0,0,0,0,0,0,0,0,0,0,0,0,0,0,0,0,0,0,
0,0,0,0,0,0,0,0,0,0,0,0,0,0,0,0,0,0,0,0,0,0,0,0,0,0,0,0,0,0,0,0,0,0,0,0,0,0,0,0,0,0,0,0,0,0,0,0,0,0,0,0,0,0,0,0,0,0,0,0,0,0,0,0,0,0,0,0,0,0,0,0,0,0,0,0,0,0,0,0,0,0,0,0,0,0,0,0,0,0,0,0,0,0,0,0,0,0,0,0,
0,0,0,0,0,0,0,0,0,0,0,0,0,0,0,0,0,0,0,0,0,0,0,0,0,0,0,0,0,0,0,0,0,0,0,0,0,0,0,0,0,0,0,0,0,0,0,0,0,0,0,0,0,0,0,0,0,0,0,0,0,0,0,0,0,0,0,0,0,0,0,0,0,0,0,0,0,0,0,0,0,0,0,0,0,0,0,0,0,0,0,0,0,0,0,0,0,0,0,0,
0,0,0,0,0,0,0,0,0,0,0,0,0,0,0,0,0,0,0,0,0,0,0,0,0,0,0,0,0,0,0,0,0,0,0,0,0,0,0,0,0,0,0,0,0,0,0,0,0,0,0,0,0,0,0,0,0,0,0,0,0,0,0,0,0,0,0,0,0,0,0,0,0,0,0,0,0,0,0,0,0,0,0,0,0,0,0,0,0,0,0,0,0,0,0,0,0,0,0,0,
0,0,0,0,0,0,0,0,0,0,0,0,0,0,0,0,0,0,0,0,0,0,0,0,0,0,0,0,0,0,0,0,0,0,0,0,0,0,0,0,0,0,0,0,0,0,0,0,0,0,0,0,0,0,0,0,0,0,0,0,0,0,0,0,0,0,0,0,0,0,0,0,0,0,0,0,0,0,0,0,0,0,0,0,0,0,0,0,0,0,0,0,0,0,0,0,0,0,0,0,
0,0,0,0,0,0,0,0,0,0,0,0,0,0,0,0,0,0,0,0,0,0,0,0,0,0,0,0,0,0,0,0,0,0,0,0,0,0,0,0,0,0,0,0,0,0,0,0,0,0,0,0,0,0,0,0,0,0,0,0,0,0,0,0,0,0,0,0,0,0,0,0,0,0,0,0,0,0,0,0,0,0,0,0,0,0,0,0,0,0,0,0,0,0,0,0,0,0,0,0,
0,0,0,0,0,0,0,0,0,0,0,0,0,0,0,0,0,0,0,0,0,0,0,0,0,0,0,0,0,0,0,0,0,0,0,0,0,0,0,0,0,0,0,0,0,0,0,0,0,0,0,0,0,0,0,0,0,0,0,0,0,0,0,0,0,0,0,0,0,0,0,0,0,0,0,0,0,0,0,0,0,0,0,0,0,0,0,0,0,0,0,0,0,0,0,0,0,0,0,0,
0,0,0,0,0,0,0,0,0,0,0,0,0,0,0,0,0,0,0,0,0,0,0,0,0,0,0,0,0,0,0,0,0,0,0,0,0,0,0,0,0,0,0,0,0,0,0,0,0,0,0,0,0,0,0,0,0,0,0,0,0,0,0,0,0,0,0,0,0,0,0,0,0,0,0,0,0,0,0,0,0,0,0,0,0,0,0,0,0,0,0,0,0,0,0,0,0,0,0,0,
0,0,0,0,0,0,0,0,0,0,0,0,0,0,0,0,0,0,0,0,0,0,0,0,0,0,0,0,0,0,0,0,0,0,0,0,0,0,0,0,0,0,0,0,0,0,0,0,0,0,0,0,0,0,0,0,0,0,0,0,0,0,0,0,0,0,0,0,0,0,0,0,0,0,0,0,0,0,0,0,0,0,0,0,0,0,0,0,0,0,0,0,0,0,0,0,0,0,0,0,
0,0,0,0,0,0,0,0,0,0,0,0,0,0,0,0,0,0,0,0,0,0,0,0,0,0,0,0,0,0,0,0,0,0,0,0,0,0,0,0,0,0,0,0,0,0,0,0,0,0,0,0,0,0,0,0,0,0,0,0,0,0,0,0,0,0,0,0,0,0,0,0,0,0,0,0,0,0,0,0,0,0,0,0,0,0,0,0,0,0,0,0,0,0,0,0,0,0,0,0,
0,0,0,0,0,0,0,0,0,0,0,0,0,0,0,0,0,0,0,0,0,0,0,0,0,0,0,0,0,0,0,0,0,0,0,0,0,0,0,0,0,0,0,0,0,0,0,0,0,0,0,0,0,0,0,0,0,0,0,0,0,0,0,0,0,0,0,0,0,0,0,0,0,0,0,0,0,0,0,0,0,0,0,0,0,0,0,0,0,0,0,0,0,0,0,0,0,0,0,0,
0,0,0,0,0,0,0,0,0,0,0,0,0,0,0,0,0,0,0,0,0,0,0,0,0,0,0,0,0,0,0,0,0,0,0,0,0,0,0,0,0,0,0,0,0,0,0,0,0,0,0,0,0,0,0,0,0,0,0,0,0,0,0,0,0,0,0,0,0,0,0,0,0,0,0,0,0,0,0,0,0,0,0,0,0,0,0,0,0,0,0,0,0,0,0,0,0,0,0,0,
0,0,0,0,0,0,0,0,0,0,0,0,0,0,0,0,0,0,0,0,0,0,0,0,0,0,0,0,0,0,0,0,0,0,0,0,0,0,0,0,0,0,0,0,0,0,0,0,0,0,0,0,0,0,0,0,0,0,0,0,0,0,0,0,0,0,0,0,0,0,0,0,0,0,0,0,0,0,0,0,0,0,0,0,0,0,0,0,0,0,0,0,0,0,0,0,0,0,0,0,
0,0,0,0,0,0,0,0,0,0,0,0,0,0,0,0,0,0,0,0,0,0,0,0,0,0,0,0,0,0,0,0,0,0,0,0,0,0,0,0,0,0,0,0,0,0,0,0,0,0,0,0,0,0,0,0,0,0,0,0,0,0,0,0,0,0,0,0,0,0,0,0,0,0,0,0,0,0,0,0,0,0,0,0,0,0,0,0,0,0,0,0,0,0,0,0,0,0,0,0,
0,0,0,0,0,0,0,0,0,0,0,0,0,0,0,0,0,0,0,0,0,0,0,0,0,0,0,0,0,0,0,0,0,0,0,0,0,0,0,0,0,0,0,0,0,0,0,0,0,0,0,0,0,0,0,0,0,0,0,0,0,0,0,0,0,0,0,0,0,0,0,0,0,0,0,0,0,0,0,0,0,0,0,0,0,0,0,0,0,0,0,0,0,0,0,0,0,0,0,0,
0,0,0,0,0,0,0,0,0,0,0,0,0,0,0,0,0,0,0,0,0,0,0,0,0,0,0,0,0,0,0,0,0,0,0,0,0,0,0,0,0,0,0,0,0,0,0,0,0,0,0,0,0,0,0,0,0,0,0,0,0,0,0,0,0,0,0,0,0,0,0,0,0,0,0,0,0,0,0,0,0,0,0,0,0,0,0,0,0,0,0,0,0,0,0,0,0,0,0,0,
0,0,0,0,0,0,0,0,0,0,0,0,0,0,0,0,0,0,0,0,0,0,0,0,0,0,0,0,0,0,0,0,0,0,0,0,0,0,0,0,0,0,0,0,0,0,0,0,0,0,0,0,0,0,0,0,0,0,0,0,0,0,0,0,0,0,0,0,0,0,0,0,0,0,0,0,0,0,0,0,0,0,0,0,0,0,0,0,0,0,0,0,0,0,0,0,0,0,0,0,
0,0,0,0,0,0,0,0,0,0,0,0,0,0,0,0,0,0,0,0,0,0,0,0,0,0,0,0,0,0,0,0,0,0,0,0,0,0,0,0,0,0,0,0,0,0,0,0,0,0,0,0,0,0,0,0,0,0,0,0,0,0,0,0,0,0,0,0,0,0,0,0,0,0,0,0,0,0,0,0,0,0,0,0,0,0,0,0,0,0,0,0,0,0,0,0,0,0,0,0,
0,0,0,0,0,0,0,0,0,0,0,0,0,0,0,0,0,0,0,0,0,0,0,0,0,0,0,0,0,0,0,0,0,0,0,0,0,0,0,0,0,0,0,0,0,0,0,0,0,0,0,0,0,0,0,0,0,0,0,0,0,0,0,0,0,0,0,0,0,0,0,0,0,0,0,0,0,0,0,0,0,0,0,0,0,0,0,0,0,0,0,0,0,0,0,0,0,0,0,0,
0,0,0,0,0,0,0,0,0,0,0,0,0,0,0,0,0,0,0,0,0,0,0,0,0,0,0,0,0,0,0,0,0,0,0,0,0,0,0,0,0,0,0,0,0,0,0,0,0,0,0,0,0,0,0,0,0,0,0,0,0,0,0,0,0,0,0,0,0,0,0,0,0,0,0,0,0,0,0,0,0,0,0,0,0,0,0,0,0,0,0,0,0,0,0,0,0,0,0,0,
0,0,0,0,0,0,0,0,0,0,0,0,0,0,0,0,0,0,0,0,0,0,0,0,0,0,0,0,0,0,0,0,0,0,0,0,0,0,0,0,0,0,0,0,0,0,0,0,0,0,0,0,0,0,0,0,0,0,0,0,0,0,0,0,0,0,0,0,0,0,0,0,0,0,0,0,0,0,0,0,0,0,0,0,0,0,0,0,0,0,0,0,0,0,0,0,0,0,0,0,
0,0,0,0,0,0,0,0,0,0,0,0,0,0,0,0,0,0,0,0,0,0,0,0,0,0,0,0,0,0,0,0,0,0,0,0,0,0,0,0,0,0,0,0,0,0,0,0,0,0,0,0,0,0,0,0,0,0,0,0,0,0,0,0,0,0,0,0,0,0,0,0,0,0,0,0,0,0,0,0,0,0,0,0,0,0,0,0,0,0,0,0,0,0,0,0,0,0,0,0,
0,0,0,0,0,0,0,0,0,0,0,0,0,0,0,0,0,0,0,0,0,0,0,0,0,0,0,0,0,0,0,0,0,0,0,0,0,0,0,0,0,0,0,0,0,0,0,0,0,0,0,0,0,0,0,0,0,0,0,0,0,0,0,0,0,0,0,0,0,0,0,0,0,0,0,0,0,0,0,0,0,0,0,0,0,0,0,0,0,0,0,0,0,0,0,0,0,0,0,0,
0,0,0,0,0,0,0,0,0,0,0,0,0,0,0,0,0,0,0,0,0,0,0,0,0,0,0,0,0,0,0,0,0,0,0,0,0,0,0,0,0,0,0,0,0,0,0,0,0,0,0,0,0,0,0,0,0,0,0,0,0,0,0,0,0,0,0,0,0,0,0,0,0,0,0,0,0,0,0,0,0,0,0,0,0,0,0,0,0,0,0,0,0,0,0,0,0,0,0,0,
0,0,0,0,0,0,0,0,0,0,0,0,0,0,0,0,0,0,0,0,0,0,0,0,0,0,0,0,0,0,0,0,0,0,0,0,0,0,0,0,0,0,0,0,0,0,0,0,0,0,0,0,0,0,0,0,0,0,0,0,0,0,0,0,0,0,0,0,0,0,0,0,0,0,0,0,0,0,0,0,0,0,0,0,0,0,0,0,0,0,0,0,0,0,0,0,0,0,0,0,
0,0,0,0,0,0,0,0,0,0,0,0,0,0,0,0,0,0,0,0,0,0,0,0,0,0,0,0,0,0,0,0,0,0,0,0,0,0,0,0,0,0,0,0,0,0,0,0,0,0,0,0,0,0,0,0,0,0,0,0,0,0,0,0,0,0,0,0,0,0,0,0,0,0,0,0,0,0,0,0,0,0,0,0,0,0,0,0,0,0,0,0,0,0,0,0,0,0,0,0,
0,0,0,0,0,0,0,0,0,0,0,0,0,0,0,0,0,0,0,0,0,0,0,0,0,0,0,0,0,0,0,0,0,0,0,0,0,0,0,0,0,0,0,0,0,0,0,0,0,0,0,0,0,0,0,0,0,0,0,0,0,0,0,0,0,0,0,0,0,0,0,0,0,0,0,0,0,0,0,0,0,0,0,0,0,0,0,0,0,0,0,0,0,0,0,0,0,0,0,0,
0,0,0,0,0,0,0,0,0,0,0,0,0,0,0,0,0,0,0,0,0,0,0,0,0,0,0,0,0,0,0,0,0,0,0,0,0,0,0,0,0,0,0,0,0,0,0,0,0,0,0,0,0,0,0,0,0,0,0,0,0,0,0,0,0,0,0,0,0,0,0,0,0,0,0,0,0,0,0,0,0,0,0,0,0,0,0,0,0,0,0,0,0,0,0,0,0,0,0,0,
0,0,0,0,0,0,0,0,0,0,0,0,0,0,0,0,0,0,0,0,0,0,0,0,0,0,0,0,0,0,0,0,0,0,0,0,0,0,0,0,0,0,0,0,0,0,0,0,0,0,0,0,0,0,0,0,0,0,0,0,0,0,0,0,0,0,0,0,0,0,0,0,0,0,0,0,0,0,0,0,0,0,0,0,0,0,0,0,0,0,0,0,0,0,0,0,0,0,0,0,
0,0,0,0,0,0,0,0,0,0,0,0,0,0,0,0,0,0,0,0,0,0,0,0,0,0,0,0,0,0,0,0,0,0,0,0,0,0,0,0,0,0,0,0,0,0,0,0,0,0,0,0,0,0,0,0,0,0,0,0,0,0,0,0,0,0,0,0,0,0,0,0,0,0,0,0,0,0,0,0,0,0,0,0,0,0,0,0,0,0,0,0,0,0,0,0,0,0,0,0,
0,0,0,0,0,0,0,0,0,0,0,0,0,0,0,0,0,0,0,0,0,0,0,0,0,0,0,0,0,0,0,0,0,0,0,0,0,0,0,0,0,0,0,0,0,0,0,0,0,0,0,0,0,0,0,0,0,0,0,0,0,0,0,0,0,0,0,0,0,0,0,0,0,0,0,0,0,0,0,0,0,0,0,0,0,0,0,0,0,0,0,0,0,0,0,0,0,0,0,0,
0,0,0,0,0,0,0,0,0,0,0,0,0,0,0,0,0,0,0,0,0,0,0,0,0,0,0,0,0,0,0,0,0,0,0,0,0,0,0,0,0,0,0,0,0,0,0,0,0,0,0,0,0,0,0,0,0,0,0,0,0,0,0,0,0,0,0,0,0,0,0,0,0,0,0,0,0,0,0,0,0,0,0,0,0,0,0,0,0,0,0,0,0,0,0,0,0,0,0,0,
0,0,0,0,0,0,0,0,0,0,0,0,0,0,0,0,0,0,0,0,0,0,0,0,0,0,0,0,0,0,0,0,0,0,0,0,0,0,0,0,0,0,0,0,0,0,0,0,0,0,0,0,0,0,0,0,0,0,0,0,0,0,0,0,0,0,0,0,0,0,0,0,0,0,0,0,0,0,0,0,0,0,0,0,0,0,0,0,0,0,0,0,0,0,0,0,0,0,0,0,
0,0,0,0,0,0,0,0,0,0,0,0,0,0,0,0,0,0,0,0,0,0,0,0,0,0,0,0,0,0,0,0,0,0,0,0,0,0,0,0,0,0,0,0,0,0,0,0,0,0,0,0,0,0,0,0,0,0,0,0,0,0,0,0,0,0,0,0,0,0,0,0,0,0,0,0,0,0,0,0,0,0,0,0,0,0,0,0,0,0,0,0,0,0,0,0,0,0,0,0,
0,0,0,0,0,0,0,0,0,0,0,0,0,0,0,0,0,0,0,0,0,0,0,0,0,0,0,0,0,0,0,0,0,0,0,0,0,0,0,0,0,0,0,0,0,0,0,0,0,0,0,0,0,0,0,0,0,0,0,0,0,0,0,0,0,0,0,0,0,0,0,0,0,0,0,0,0,0,0,0,0,0,0,0,0,0,0,0,0,0,0,0,0,0,0,0,0,0,0,0,
0,0,0,0,0,0,0,0,0,0,0,0,0,0,0,0,0,0,0,0,0,0,0,0,0,0,0,0,0,0,0,0,0,0,0,0,0,0,0,0,0,0,0,0,0,0,0,0,0,0,0,0,0,0,0,0,0,0,0,0,0,0,0,0,0,0,0,0,0,0,0,0,0,0,0,0,0,0,0,0,0,0,0,0,0,0,0,0,0,0,0,0,0,0,0,0,0,0,0,0,
0,0,0,0,0,0,0,0,0,0,0,0,0,0,0,0,0,0,0,0,0,0,0,0,0,0,0,0,0,0,0,0,0,0,0,0,0,0,0,0,0,0,0,0,0,0,0,0,0,0,0,0,0,0,0,0,0,0,0,0,0,0,0,0,0,0,0,0,0,0,0,0,0,0,0,0,0,0,0,0,0,0,0,0,0,0,0,0,0,0,0,0,0,0,0,0,0,0,0,0,
0,0,0,0,0,0,0,0,0,0,0,0,0,0,0,0,0,0,0,0,0,0,0,0,0,0,0,0,0,0,0,0,0,0,0,0,0,0,0,0,0,0,0,0,0,0,0,0,0,0,0,0,0,0,0,0,0,0,0,0,0,0,0,0,0,0,0,0,0,0,0,0,0,0,0,0,0,0,0,0,0,0,0,0,0,0,0,0,0,0,0,0,0,0,0,0,0,0,0,0,
0,0,0,0,0,0,0,0,0,0,0,0,0,0,0,0,0,0,0,0,0,0,0,0,0,0,0,0,0,0,0,0,0,0,0,0,0,0,0,0,0,0,0,0,0,0,0,0,0,0,0,0,0,0,0,0,0,0,0,0,0,0,0,0,0,0,0,0,0,0,0,0,0,0,0,0,0,0,0,0,0,0,0,0,0,0,0,0,0,0,0,0,0,0,0,0,0,0,0,0,
0,0,0,0,0,0,0,0,0,0,0,0,0,0,0,0,0,0,0,0,0,0,0,0,0,0,0,0,0,0,0,0,0,0,0,0,0,0,0,0,0,0,0,0,0,0,0,0,0,0,0,0,0,0,0,0,0,0,0,0,0,0,0,0,0,0,0,0,0,0,0,0,0,0,0,0,0,0,0,0,0,0,0,0,0,0,0,0,0,0,0,0,0,0,0,0,0,0,0,0,
0,0,0,0,0,0,0,0,0,0,0,0,0,0,0,0,0,0,0,0,0,0,0,0,0,0,0,0,0,0,0,0,0,0,0,0,0,0,0,0,0,0,0,0,0,0,0,0,0,0,0,0,0,0,0,0,0,0,0,0,0,0,0,0,0,0,0,0,0,0,0,0,0,0,0,0,0,0,0,0,0,0,0,0,0,0,0,0,0,0,0,0,0,0,0,0,0,0,0,0,
0,0,0,0,0,0,0,0,0,0,0,0,0,0,0,0,0,0,0,0,0,0,0,0,0,0,0,0,0,0,0,0,0,0,0,0,0,0,0,0,0,0,0,0,0,0,0,0,0,0,0,0,0,0,0,0,0,0,0,0,0,0,0,0,0,0,0,0,0,0,0,0,0,0,0,0,0,0,0,0,0,0,0,0,0,0,0,0,0,0,0,0,0,0,0,0,0,0,0,0,
0,0,0,0,0,0,0,0,0,0,0,0,0,0,0,0,0,0,0,0,0,0,0,0,0,0,0,0,0,0,0,0,0,0,0,0,0,0,0,0,0,0,0,0,0,0,0,0,0,0,0,0,0,0,0,0,0,0,0,0,0,0,0,0,0,0,0,0,0,0,0,0,0,0,0,0,0,0,0,0,0,0,0,0,0,0,0,0,0,0,0,0,0,0,0,0,0,0,0,0,
0,0,0,0,0,0,0,0,0,0,0,0,0,0,0,0,0,0,0,0,0,0,0,0,0,0,0,0,0,0,0,0,0,0,0,0,0,0,0,0,0,0,0,0,0,0,0,0,0,0,0,0,0,0,0,0,0,0,0,0,0,0,0,0,0,0,0,0,0,0,0,0,0,0,0,0,0,0,0,0,0,0,0,0,0,0,0,0,0,0,0,0,0,0,0,0,0,0,0,0,
0,0,0,0,0,0,0,0,0,0,0,0,0,0,0,0,0,0,0,0,0,0,0,0,0,0,0,0,0,0,0,0,0,0,0,0,0,0,0,0,0,0,0,0,0,0,0,0,0,0,0,0,0,0,0,0,0,0,0,0,0,0,0,0,0,0,0,0,0,0,0,0,0,0,0,0,0,0,0,0,0,0,0,0,0,0,0,0,0,0,0,0,0,0,0,0,0,0,0,0
</data>
 </layer>
 <layer id="4" name="collision" width="100" height="100">
  <data encoding="csv">
0,0,0,0,0,0,0,0,0,0,0,0,0,0,0,0,0,0,0,0,0,0,0,0,0,0,0,0,0,0,0,0,0,0,0,0,0,0,0,0,0,0,0,0,0,0,0,0,0,0,0,0,0,0,0,0,0,0,0,0,0,0,0,0,0,0,0,0,0,0,0,0,0,0,0,0,0,0,0,0,0,0,0,0,0,0,0,0,0,0,0,0,0,0,0,0,0,0,0,0,
0,0,0,0,0,0,0,0,0,0,0,0,0,0,0,0,0,0,0,0,0,0,0,0,0,0,0,0,0,0,0,0,0,0,0,0,0,0,0,0,0,0,0,0,0,0,0,0,0,0,0,0,0,0,0,0,0,0,0,0,0,0,0,0,0,0,0,0,0,0,0,0,0,0,0,0,0,0,0,0,0,0,0,0,0,0,0,0,0,0,0,0,0,0,0,0,0,0,0,0,
0,0,0,0,0,0,0,0,0,0,0,0,0,0,0,0,0,0,0,0,0,0,0,0,0,0,0,0,0,0,0,0,0,0,0,0,0,0,0,0,0,0,0,0,0,0,0,0,0,0,0,0,0,0,0,0,0,0,0,0,0,0,0,0,0,0,0,0,0,0,0,0,0,0,0,0,0,0,0,0,0,0,0,0,0,0,0,0,0,0,0,0,0,0,0,0,0,0,0,0,
0,0,0,0,0,0,0,0,0,0,0,0,0,0,0,0,0,0,0,0,0,0,0,0,0,0,0,0,0,0,0,0,0,0,0,0,0,0,0,0,0,0,0,0,0,0,0,0,0,0,0,0,0,0,0,0,0,0,0,0,0,0,0,0,0,0,0,0,0,0,0,0,0,0,0,0,0,0,0,0,0,0,0,0,0,0,0,0,0,0,0,0,0,0,0,0,0,0,0,0,
0,0,0,0,0,0,0,0,0,0,0,0,0,0,0,0,0,0,0,0,0,0,0,0,0,0,0,0,0,0,0,0,0,0,0,0,0,0,0,0,0,0,0,0,0,0,0,0,0,0,0,0,0,0,0,0,0,0,0,0,0,0,0,0,0,0,0,0,0,0,0,0,0,0,0,0,0,0,0,0,0,0,0,0,0,0,0,0,0,0,0,0,0,0,0,0,0,0,0,0,
0,0,0,0,0,0,0,0,0,0,0,0,0,0,0,0,0,0,0,0,0,0,0,0,0,0,0,0,0,0,0,0,0,0,0,0,0,0,0,0,0,0,0,0,0,0,0,0,0,0,0,0,0,0,0,0,0,0,0,0,0,0,0,0,0,0,0,0,0,0,0,0,0,0,0,0,0,0,0,0,0,0,0,0,0,0,0,0,0,0,0,0,0,0,0,0,0,0,0,0,
0,0,0,0,0,0,0,0,0,0,0,0,0,0,0,0,0,0,0,0,0,0,0,0,0,0,0,0,0,0,0,0,0,0,0,0,0,0,0,0,0,0,0,0,0,0,0,0,0,0,0,0,0,0,0,0,0,0,0,0,0,0,0,0,0,0,0,0,0,0,0,0,0,0,0,0,0,0,0,0,0,0,0,0,0,0,0,0,0,0,0,0,0,0,0,0,0,0,0,0,
0,0,0,0,0,0,0,0,0,0,0,0,0,0,0,0,0,0,0,0,0,0,0,0,0,0,0,0,0,0,0,0,0,0,0,0,0,0,0,0,0,0,0,0,0,0,0,0,0,0,0,0,0,0,0,0,0,0,0,0,0,0,0,0,0,0,0,0,0,0,0,0,0,0,0,0,0,0,0,0,0,0,0,0,0,0,0,0,0,0,0,0,0,0,0,0,0,0,0,0,
0,0,0,0,0,0,0,0,0,0,0,0,0,0,0,0,0,0,0,0,0,0,0,0,0,0,0,0,0,0,0,0,0,0,0,0,0,0,0,0,0,0,0,0,0,0,0,0,0,0,0,0,0,0,0,0,0,0,0,0,0,0,0,0,0,0,0,0,0,0,0,0,0,0,0,0,0,0,0,0,0,0,0,0,0,0,0,0,0,0,0,0,0,0,0,0,0,0,0,0,
0,0,0,0,0,0,0,0,0,0,0,0,0,0,0,0,0,0,0,0,0,0,0,0,0,0,0,0,0,0,0,0,0,0,0,0,0,0,0,0,0,0,0,0,0,0,0,0,0,0,0,0,0,0,0,0,0,0,0,0,0,0,0,0,0,0,0,0,0,0,0,0,0,0,0,0,0,0,0,0,0,0,0,0,0,0,0,0,0,0,0,0,0,0,0,0,0,0,0,0,
0,0,0,0,0,0,0,0,0,0,0,0,0,0,0,0,0,0,0,0,0,0,0,0,0,0,0,0,0,0,0,0,0,0,0,0,0,0,0,0,0,0,0,0,0,0,0,0,0,0,0,0,0,0,0,0,0,0,0,0,0,0,0,0,0,0,0,0,0,0,0,0,0,0,0,0,0,0,0,0,0,0,0,0,0,0,0,0,0,0,0,0,0,0,0,0,0,0,0,0,
0,0,0,0,0,0,0,0,0,0,0,0,0,0,0,0,0,0,0,0,0,0,0,0,0,0,0,0,0,0,0,0,0,0,0,0,0,0,0,0,0,0,0,0,0,0,0,0,0,0,0,0,0,0,0,0,0,0,0,0,0,0,0,0,0,0,0,0,0,0,0,0,0,0,0,0,0,0,0,0,0,0,0,0,0,0,0,0,0,0,0,0,0,0,0,0,0,0,0,0,
0,0,0,0,0,0,0,0,0,0,0,0,0,0,0,0,0,0,0,0,0,0,0,0,0,0,0,0,0,0,0,0,0,0,0,0,0,0,0,0,0,0,0,0,0,0,0,0,0,0,0,0,0,0,0,0,0,0,0,0,0,0,0,0,0,0,0,0,0,0,0,0,0,0,0,0,0,0,0,0,0,0,0,0,0,0,0,0,0,0,0,0,0,0,0,0,0,0,0,0,
0,0,0,0,0,0,0,0,0,0,0,0,0,0,0,0,0,0,0,0,0,0,0,0,0,0,0,0,0,0,0,0,0,0,0,0,0,0,0,0,0,0,0,0,0,0,0,0,0,0,0,0,0,0,0,0,0,0,0,0,0,0,0,0,0,0,0,0,0,0,0,0,0,0,0,0,0,0,0,0,0,0,0,0,0,0,0,0,0,0,0,0,0,0,0,0,0,0,0,0,
0,0,0,0,0,0,0,0,0,0,0,0,0,0,0,0,0,0,0,0,0,0,0,0,0,0,0,0,0,0,0,0,0,0,0,0,0,0,0,0,0,0,0,0,0,0,0,0,0,0,0,0,0,0,0,0,0,0,0,0,0,0,0,0,0,0,0,0,0,0,0,0,0,0,0,0,0,0,0,0,0,0,0,0,0,0,0,0,0,0,0,0,0,0,0,0,0,0,0,0,
0,0,0,0,0,0,0,0,0,0,0,0,0,0,0,0,0,0,0,0,0,0,0,0,0,0,0,0,0,0,0,0,0,0,0,0,0,0,0,0,0,0,0,0,0,0,0,0,0,0,0,0,0,0,0,0,0,0,0,0,0,0,0,0,0,0,0,0,0,0,0,0,0,0,0,0,0,0,0,0,0,0,0,0,0,0,0,0,0,0,0,0,0,0,0,0,0,0,0,0,
0,0,0,0,0,0,0,0,0,0,0,0,0,0,0,0,0,0,0,0,0,0,0,0,0,0,0,0,0,0,0,0,0,0,0,0,0,0,0,0,0,0,0,0,0,0,0,0,0,0,0,0,0,0,0,0,0,0,0,0,0,0,0,0,0,0,0,0,0,0,0,0,0,0,0,0,0,0,0,0,0,0,0,0,0,0,0,0,0,0,0,0,0,0,0,0,0,0,0,0,
0,0,0,0,0,0,0,0,0,0,0,0,0,0,0,0,0,0,0,0,0,0,0,0,0,0,0,0,0,0,0,0,0,0,0,0,0,0,0,0,0,0,0,0,0,0,0,0,0,0,0,0,0,0,0,0,0,0,0,0,0,0,0,0,0,0,0,0,0,0,0,0,0,0,0,0,0,0,0,0,0,0,0,0,0,0,0,0,0,0,0,0,0,0,0,0,0,0,0,0,
0,0,0,0,0,0,0,0,0,0,0,0,0,0,0,0,0,0,0,0,0,0,0,0,0,0,0,0,0,0,0,0,0,0,0,0,0,0,0,0,0,0,0,0,0,0,0,0,0,0,0,0,0,0,0,0,0,0,0,0,0,0,0,0,0,0,0,0,0,0,0,0,0,0,0,0,0,0,0,0,0,0,0,0,0,0,0,0,0,0,0,0,0,0,0,0,0,0,0,0,
0,0,0,0,0,0,0,0,0,0,0,0,0,0,0,0,0,0,0,0,0,0,0,0,0,0,0,0,0,0,0,0,0,0,0,0,0,0,0,0,0,0,0,0,0,0,0,0,0,0,0,0,0,0,0,0,0,0,0,0,0,0,0,0,0,0,0,0,0,0,0,0,0,0,0,0,0,0,0,0,0,0,0,0,0,0,0,0,0,0,0,0,0,0,0,0,0,0,0,0,
0,0,0,0,0,0,0,0,0,0,0,0,0,0,0,0,0,0,0,0,0,0,0,0,0,0,0,0,0,0,0,0,0,0,0,0,0,0,0,0,0,0,0,0,0,0,0,0,0,0,0,0,0,0,0,0,0,0,0,0,0,0,0,0,0,0,0,0,0,0,0,0,0,0,0,0,0,0,0,0,0,0,0,0,0,0,0,0,0,0,0,0,0,0,0,0,0,0,0,0,
0,0,0,0,0,0,0,0,0,0,0,0,0,0,0,0,0,0,0,0,0,0,0,0,0,0,0,0,0,0,0,0,0,0,0,0,0,0,0,0,0,0,0,0,0,0,0,0,0,0,0,0,0,0,0,0,0,0,0,0,0,0,0,0,0,0,0,0,0,0,0,0,0,0,0,0,0,0,0,0,0,0,0,0,0,0,0,0,0,0,0,0,0,0,0,0,0,0,0,0,
0,0,0,0,0,0,0,0,0,0,0,0,0,0,0,0,0,0,0,0,0,0,0,0,0,0,0,0,0,0,0,0,0,0,0,0,0,0,0,0,0,0,0,0,0,0,0,0,0,0,0,0,0,0,0,0,0,0,0,0,0,0,0,0,0,0,0,0,0,0,0,0,0,0,0,0,0,0,0,0,0,0,0,0,0,0,0,0,0,0,0,0,0,0,0,0,0,0,0,0,
0,0,0,0,0,0,0,0,0,0,0,0,0,0,0,0,0,0,0,0,0,0,0,0,0,0,0,0,0,0,0,0,0,0,0,0,0,0,0,0,0,0,0,0,0,0,0,0,0,0,0,0,0,0,0,0,0,0,0,0,0,0,0,0,0,0,0,0,0,0,0,0,0,0,0,0,0,0,0,0,0,0,0,0,0,0,0,0,0,0,0,0,0,0,0,0,0,0,0,0,
0,0,0,0,0,0,0,0,0,0,0,0,0,0,0,0,0,0,0,0,0,0,0,0,0,0,0,0,0,0,0,0,0,0,0,0,0,0,0,0,0,0,0,0,0,0,0,0,0,0,0,0,0,0,0,0,0,0,0,0,0,0,0,0,0,0,0,0,0,0,0,0,0,0,0,0,0,0,0,0,0,0,0,0,0,0,0,0,0,0,0,0,0,0,0,0,0,0,0,0,
0,0,0,0,0,0,0,0,0,0,0,0,0,0,0,0,0,0,0,0,0,0,0,0,0,0,0,0,0,0,0,0,0,0,0,0,0,0,0,0,0,0,0,0,0,0,0,0,0,0,0,0,0,0,0,0,0,0,0,0,0,0,0,0,0,0,0,0,0,0,0,0,0,0,0,0,0,0,0,0,0,0,0,0,0,0,0,0,0,0,0,0,0,0,0,0,0,0,0,0,
0,0,0,0,0,0,0,0,0,0,0,0,0,0,0,0,0,0,0,0,0,0,0,0,0,0,0,0,0,0,0,0,0,0,0,0,0,0,0,0,0,0,0,0,0,0,0,0,0,0,0,0,0,0,0,0,0,0,0,0,0,0,0,0,0,0,0,0,0,0,0,0,0,0,0,0,0,0,0,0,0,0,0,0,0,0,0,0,0,0,0,0,0,0,0,0,0,0,0,0,
0,0,0,0,0,0,0,0,0,0,0,0,0,0,0,0,0,0,0,0,0,0,0,0,0,0,0,0,0,0,0,0,0,0,0,0,0,0,0,0,0,0,0,0,0,0,0,0,0,0,0,0,0,0,0,0,0,0,0,0,0,0,0,0,0,0,0,0,0,0,0,0,0,0,0,0,0,0,0,0,0,0,0,0,0,0,0,0,0,0,0,0,0,0,0,0,0,0,0,0,
0,0,0,0,0,0,0,0,0,0,0,0,0,0,0,0,0,0,0,0,0,0,0,0,0,0,0,0,0,0,0,0,0,0,0,0,0,0,0,0,0,0,0,0,0,0,0,0,0,0,0,0,0,0,0,0,0,0,0,0,0,0,0,0,0,0,0,0,0,0,0,0,0,0,0,0,0,0,0,0,0,0,0,0,0,0,0,0,0,0,0,0,0,0,0,0,0,0,0,0,
0,0,0,0,0,0,0,0,0,0,0,0,0,0,0,0,0,0,0,0,0,0,0,0,0,0,0,0,0,0,0,0,0,0,0,0,0,0,0,0,0,0,0,0,0,0,0,0,0,0,0,0,0,0,0,0,0,0,0,0,0,0,0,0,0,0,0,0,0,0,0,0,0,0,0,0,0,0,0,0,0,0,0,0,0,0,0,0,0,0,0,0,0,0,0,0,0,0,0,0,
0,0,0,0,0,0,0,0,0,0,0,0,0,0,0,0,0,0,0,0,0,0,0,0,0,0,0,0,0,0,0,0,0,0,0,0,0,0,0,0,0,0,0,0,0,0,0,0,0,0,0,0,0,0,0,0,0,0,0,0,0,0,0,0,0,0,0,0,0,0,0,0,0,0,0,0,0,0,0,0,0,0,0,0,0,0,0,0,0,0,0,0,0,0,0,0,0,0,0,0,
0,0,0,0,0,0,0,0,0,0,0,0,0,0,0,0,0,0,0,0,0,0,0,0,0,0,0,0,0,0,0,0,0,0,0,0,0,0,0,0,0,0,0,0,0,0,0,0,0,0,0,0,0,0,0,0,0,0,0,0,0,0,0,0,0,0,0,0,0,0,0,0,0,0,0,0,0,0,0,0,0,0,0,0,0,0,0,0,0,0,0,0,0,0,0,0,0,0,0,0,
0,0,0,0,0,0,0,0,0,0,0,0,0,0,0,0,0,0,0,0,0,0,0,0,0,0,0,0,0,0,0,0,0,0,0,0,0,0,0,0,0,0,0,0,0,0,0,0,0,0,0,0,0,0,0,0,0,0,0,0,0,0,0,0,0,0,0,0,0,0,0,0,0,0,0,0,0,0,0,0,0,0,0,0,0,0,0,0,0,0,0,0,0,0,0,0,0,0,0,0,
0,0,0,0,0,0,0,0,0,0,0,0,0,0,0,0,0,0,0,0,0,0,0,0,0,0,0,0,0,0,0,0,0,0,0,0,0,0,0,0,0,0,0,0,0,0,0,0,0,0,0,0,0,0,0,0,0,0,0,0,0,0,0,0,0,0,0,0,0,0,0,0,0,0,0,0,0,0,0,0,0,0,0,0,0,0,0,0,0,0,0,0,0,0,0,0,0,0,0,0,
0,0,0,0,0,0,0,0,0,0,0,0,0,0,0,0,0,0,0,0,0,0,0,0,0,0,0,0,0,0,0,0,0,0,0,0,0,0,0,0,0,0,0,0,0,0,0,0,0,0,0,0,0,0,0,0,0,0,0,0,0,0,0,0,0,0,0,0,0,0,0,0,0,0,0,0,0,0,0,0,0,0,0,0,0,0,0,0,0,0,0,0,0,0,0,0,0,0,0,0,
0,0,0,0,0,0,0,0,0,0,0,0,0,0,0,0,0,0,0,0,0,0,0,0,0,0,0,0,0,0,0,0,0,0,0,0,0,0,0,0,0,0,0,0,0,0,0,0,0,0,0,0,0,0,0,0,0,0,0,0,0,0,0,0,0,0,0,0,0,0,0,0,0,0,0,0,0,0,0,0,0,0,0,0,0,0,0,0,0,0,0,0,0,0,0,0,0,0,0,0,
0,0,0,0,0,0,0,0,0,0,0,0,0,0,0,0,0,0,0,0,0,0,0,0,0,0,0,0,0,0,0,0,0,0,0,0,0,0,0,0,0,0,0,0,0,0,0,0,0,0,0,0,0,0,0,0,0,0,0,0,0,0,0,0,0,0,0,0,0,0,0,0,0,0,0,0,0,0,0,0,0,0,0,0,0,0,0,0,0,0,0,0,0,0,0,0,0,0,0,0,
0,0,0,0,0,0,0,0,0,0,0,0,0,0,0,0,0,0,0,0,0,0,0,0,0,0,0,0,0,0,0,0,0,0,0,0,0,0,0,0,0,0,0,0,0,0,0,0,0,0,0,0,0,0,0,0,0,0,0,0,0,0,0,0,0,0,0,0,0,0,0,0,0,0,0,0,0,0,0,0,0,0,0,0,0,0,0,0,0,0,0,0,0,0,0,0,0,0,0,0,
0,0,0,0,0,0,0,0,0,0,0,0,0,0,0,0,0,0,0,0,0,0,0,0,0,0,0,0,0,0,0,0,0,0,0,0,0,0,0,0,0,0,0,0,0,0,0,0,0,0,0,0,0,0,0,0,0,0,0,0,0,0,0,0,0,0,0,0,0,0,0,0,0,0,0,0,0,0,0,0,0,0,0,0,0,0,0,0,0,0,0,0,0,0,0,0,0,0,0,0,
0,0,0,0,0,0,0,0,0,0,0,0,0,0,0,0,0,0,0,0,0,0,0,0,0,0,0,0,0,0,0,0,0,0,0,0,0,0,0,0,0,0,0,0,0,0,0,0,0,0,0,0,0,0,0,0,0,0,0,0,0,0,0,0,0,0,0,0,0,0,0,0,0,0,0,0,0,0,0,0,0,0,0,0,0,0,0,0,0,0,0,0,0,0,0,0,0,0,0,0,
0,0,0,0,0,0,0,0,0,0,0,0,0,0,0,0,0,0,0,0,0,0,0,0,0,0,0,0,0,0,0,0,0,0,0,0,0,0,0,0,0,0,0,0,0,0,0,0,0,0,0,0,0,0,0,0,0,0,0,0,0,0,0,0,0,0,0,0,0,0,0,0,0,0,0,0,0,0,0,0,0,0,0,0,0,0,0,0,0,0,0,0,0,0,0,0,0,0,0,0,
0,0,0,0,0,0,0,0,0,0,0,0,0,0,0,0,0,0,0,0,0,0,0,0,0,0,0,0,0,0,0,0,0,0,0,0,0,0,0,0,0,0,0,0,0,0,0,0,0,0,0,0,0,0,0,0,0,0,0,0,0,0,0,0,0,0,0,0,0,0,0,0,0,0,0,0,0,0,0,0,0,0,0,0,0,0,0,0,0,0,0,0,0,0,0,0,0,0,0,0,
0,0,0,0,0,0,0,0,0,0,0,0,0,0,0,0,0,0,0,0,0,0,0,0,0,0,0,0,0,0,0,0,0,0,0,0,0,0,0,0,0,0,0,0,0,0,0,0,0,0,0,0,0,0,0,0,0,0,0,0,0,0,0,0,0,0,0,0,0,0,0,0,0,0,0,0,0,0,0,0,0,0,0,0,0,0,0,0,0,0,0,0,0,0,0,0,0,0,0,0,
0,0,0,0,0,0,0,0,0,0,0,0,0,0,0,0,0,0,0,0,0,0,0,0,0,0,0,0,0,0,0,0,0,0,0,0,0,0,0,0,0,0,0,0,0,0,0,0,0,0,0,0,0,0,0,0,0,0,0,0,0,0,0,0,0,0,0,0,0,0,0,0,0,0,0,0,0,0,0,0,0,0,0,0,0,0,0,0,0,0,0,0,0,0,0,0,0,0,0,0,
0,0,0,0,0,0,0,0,0,0,0,0,0,0,0,0,0,0,0,0,0,0,0,0,0,0,0,0,0,0,0,0,0,0,0,0,0,0,0,0,0,0,0,0,0,0,0,0,0,0,0,0,0,0,0,0,0,0,0,0,0,0,0,0,0,0,0,0,0,0,0,0,0,0,0,0,0,0,0,0,0,0,0,0,0,0,0,0,0,0,0,0,0,0,0,0,0,0,0,0,
0,0,0,0,0,0,0,0,0,0,0,0,0,0,0,0,0,0,0,0,0,0,0,0,0,0,0,0,0,0,0,0,0,0,0,0,0,0,0,0,0,0,0,0,0,0,0,0,0,0,0,0,0,0,0,0,0,0,0,0,0,0,0,0,0,0,0,0,0,0,0,0,0,0,0,0,0,0,0,0,0,0,0,0,0,0,0,0,0,0,0,0,0,0,0,0,0,0,0,0,
0,0,0,0,0,0,0,0,0,0,0,0,0,0,0,0,0,0,0,0,0,0,0,0,0,0,0,0,0,0,0,0,0,0,0,0,0,0,0,0,0,0,0,0,0,0,0,0,0,0,0,0,0,0,0,0,0,0,0,0,0,0,0,0,0,0,0,0,0,0,0,0,0,0,0,0,0,0,0,0,0,0,0,0,0,0,0,0,0,0,0,0,0,0,0,0,0,0,0,0,
0,0,0,0,0,0,0,0,0,0,0,0,0,0,0,0,0,0,0,0,0,0,0,0,0,0,0,0,0,0,0,0,0,0,0,0,0,0,0,0,0,0,0,0,0,0,0,0,0,0,0,0,0,0,0,0,0,0,0,0,0,0,0,0,0,0,0,0,0,0,0,0,0,0,0,0,0,0,0,0,0,0,0,0,0,0,0,0,0,0,0,0,0,0,0,0,0,0,0,0,
0,0,0,0,0,0,0,0,0,0,0,0,0,0,0,0,0,0,0,0,0,0,0,0,0,0,0,0,0,0,0,0,0,0,0,0,0,0,0,0,0,0,0,0,0,0,0,0,0,0,0,0,0,0,0,0,0,0,0,0,0,0,0,0,0,0,0,0,0,0,0,0,0,0,0,0,0,0,0,0,0,0,0,0,0,0,0,0,0,0,0,0,0,0,0,0,0,0,0,0,
0,0,0,0,0,0,0,0,0,0,0,0,0,0,0,0,0,0,0,0,0,0,0,0,0,0,0,0,0,0,0,0,0,0,0,0,0,0,0,0,0,0,0,0,0,0,0,0,0,0,0,0,0,0,0,0,0,0,0,0,0,0,0,0,0,0,0,0,0,0,0,0,0,0,0,0,0,0,0,0,0,0,0,0,0,0,0,0,0,0,0,0,0,0,0,0,0,0,0,0,
0,0,0,0,0,0,0,0,0,0,0,0,0,0,0,0,0,0,0,0,0,0,0,0,0,0,0,0,0,0,0,0,0,0,0,0,0,0,0,0,0,0,0,0,0,0,0,0,0,0,0,0,0,0,0,0,0,0,0,0,0,0,0,0,0,0,0,0,0,0,0,0,0,0,0,0,0,0,0,0,0,0,0,0,0,0,0,0,0,0,0,0,0,0,0,0,0,0,0,0,
0,0,0,0,0,0,0,0,0,0,0,0,0,0,0,0,0,0,0,0,0,0,0,0,0,0,0,0,0,0,0,0,0,0,0,0,0,0,0,0,0,0,0,0,0,0,0,0,0,0,0,0,0,0,0,0,0,0,0,0,0,0,0,0,0,0,0,0,0,0,0,0,0,0,0,0,0,0,0,0,0,0,0,0,0,0,0,0,0,0,0,0,0,0,0,0,0,0,0,0,
0,0,0,0,0,0,0,0,0,0,0,0,0,0,0,0,0,0,0,0,0,0,0,0,0,0,0,0,0,0,0,0,0,0,0,0,0,0,0,0,0,0,0,0,0,0,0,0,0,0,0,0,0,0,0,0,0,0,0,0,0,0,0,0,0,0,0,0,0,0,0,0,0,0,0,0,0,0,0,0,0,0,0,0,0,0,0,0,0,0,0,0,0,0,0,0,0,0,0,0,
0,0,0,0,0,0,0,0,0,0,0,0,0,0,0,0,0,0,0,0,0,0,0,0,0,0,0,0,0,0,0,0,0,0,0,0,0,0,0,0,0,0,0,0,0,0,0,0,0,0,0,0,0,0,0,0,0,0,0,0,0,0,0,0,0,0,0,0,0,0,0,0,0,0,0,0,0,0,0,0,0,0,0,0,0,0,0,0,0,0,0,0,0,0,0,0,0,0,0,0,
0,0,0,0,0,0,0,0,0,0,0,0,0,0,0,0,0,0,0,0,0,0,0,0,0,0,0,0,0,0,0,0,0,0,0,0,0,0,0,0,0,0,0,0,0,0,0,0,0,0,0,0,0,0,0,0,0,0,0,0,0,0,0,0,0,0,0,0,0,0,0,0,0,0,0,0,0,0,0,0,0,0,0,0,0,0,0,0,0,0,0,0,0,0,0,0,0,0,0,0,
0,0,0,0,0,0,0,0,0,0,0,0,0,0,0,0,0,0,0,0,0,0,0,0,0,0,0,0,0,0,0,0,0,0,0,0,0,0,0,0,0,0,0,0,0,0,0,0,0,0,0,0,0,0,0,0,0,0,0,0,0,0,0,0,0,0,0,0,0,0,0,0,0,0,0,0,0,0,0,0,0,0,0,0,0,0,0,0,0,0,0,0,0,0,0,0,0,0,0,0,
0,0,0,0,0,0,0,0,0,0,0,0,0,0,0,0,0,0,0,0,0,0,0,0,0,0,0,0,0,0,0,0,0,0,0,0,0,0,0,0,0,0,0,0,0,0,0,0,0,0,0,0,0,0,0,0,0,0,0,0,0,0,0,0,0,0,0,0,0,0,0,0,0,0,0,0,0,0,0,0,0,0,0,0,0,0,0,0,0,0,0,0,0,0,0,0,0,0,0,0,
0,0,0,0,0,0,0,0,0,0,0,0,0,0,0,0,0,0,0,0,0,0,0,0,0,0,0,0,0,0,0,0,0,0,0,0,0,0,0,0,0,0,0,0,0,0,0,0,0,0,0,0,0,0,0,0,0,0,0,0,0,0,0,0,0,0,0,0,0,0,0,0,0,0,0,0,0,0,0,0,0,0,0,0,0,0,0,0,0,0,0,0,0,0,0,0,0,0,0,0,
0,0,0,0,0,0,0,0,0,0,0,0,0,0,0,0,0,0,0,0,0,0,0,0,0,0,0,0,0,0,0,0,0,0,0,0,0,0,0,0,0,0,0,0,0,0,0,0,0,0,0,0,0,0,0,0,0,0,0,0,0,0,0,0,0,0,0,0,0,0,0,0,0,0,0,0,0,0,0,0,0,0,0,0,0,0,0,0,0,0,0,0,0,0,0,0,0,0,0,0,
0,0,0,0,0,0,0,0,0,0,0,0,0,0,0,0,0,0,0,0,0,0,0,0,0,0,0,0,0,0,0,0,0,0,0,0,0,0,0,0,0,0,0,0,0,0,0,0,0,0,0,0,0,0,0,0,0,0,0,0,0,0,0,0,0,0,0,0,0,0,0,0,0,0,0,0,0,0,0,0,0,0,0,0,0,0,0,0,0,0,0,0,0,0,0,0,0,0,0,0,
0,0,0,0,0,0,0,0,0,0,0,0,0,0,0,0,0,0,0,0,0,0,0,0,0,0,0,0,0,0,0,0,0,0,0,0,0,0,0,0,0,0,0,0,0,0,0,0,0,0,0,0,0,0,0,0,0,0,0,0,0,0,0,0,0,0,0,0,0,0,0,0,0,0,0,0,0,0,0,0,0,0,0,0,0,0,0,0,0,0,0,0,0,0,0,0,0,0,0,0,
0,0,0,0,0,0,0,0,0,0,0,0,0,0,0,0,0,0,0,0,0,0,0,0,0,0,0,0,0,0,0,0,0,0,0,0,0,0,0,0,0,0,0,0,0,0,0,0,0,0,0,0,0,0,0,0,0,0,0,0,0,0,0,0,0,0,0,0,0,0,0,0,0,0,0,0,0,0,0,0,0,0,0,0,0,0,0,0,0,0,0,0,0,0,0,0,0,0,0,0,
0,0,0,0,0,0,0,0,0,0,0,0,0,0,0,0,0,0,0,0,0,0,0,0,0,0,0,0,0,0,0,0,0,0,0,0,0,0,0,0,0,0,0,0,0,0,0,0,0,0,0,0,0,0,0,0,0,0,0,0,0,0,0,0,0,0,0,0,0,0,0,0,0,0,0,0,0,0,0,0,0,0,0,0,0,0,0,0,0,0,0,0,0,0,0,0,0,0,0,0,
0,0,0,0,0,0,0,0,0,0,0,0,0,0,0,0,0,0,0,0,0,0,0,0,0,0,0,0,0,0,0,0,0,0,0,0,0,0,0,0,0,0,0,0,0,0,0,0,0,0,0,0,0,0,0,0,0,0,0,0,0,0,0,0,0,0,0,0,0,0,0,0,0,0,0,0,0,0,0,0,0,0,0,0,0,0,0,0,0,0,0,0,0,0,0,0,0,0,0,0,
0,0,0,0,0,0,0,0,0,0,0,0,0,0,0,0,0,0,0,0,0,0,0,0,0,0,0,0,0,0,0,0,0,0,0,0,0,0,0,0,0,0,0,0,0,0,0,0,0,0,0,0,0,0,0,0,0,0,0,0,0,0,0,0,0,0,0,0,0,0,0,0,0,0,0,0,0,0,0,0,0,0,0,0,0,0,0,0,0,0,0,0,0,0,0,0,0,0,0,0,
0,0,0,0,0,0,0,0,0,0,0,0,0,0,0,0,0,0,0,0,0,0,0,0,0,0,0,0,0,0,0,0,0,0,0,0,0,0,0,0,0,0,0,0,0,0,0,0,0,0,0,0,0,0,0,0,0,0,0,0,0,0,0,0,0,0,0,0,0,0,0,0,0,0,0,0,0,0,0,0,0,0,0,0,0,0,0,0,0,0,0,0,0,0,0,0,0,0,0,0,
0,0,0,0,0,0,0,0,0,0,0,0,0,0,0,0,0,0,0,0,0,0,0,0,0,0,0,0,0,0,0,0,0,0,0,0,0,0,0,0,0,0,0,0,0,0,0,0,0,0,0,0,0,0,0,0,0,0,0,0,0,0,0,0,0,0,0,0,0,0,0,0,0,0,0,0,0,0,0,0,0,0,0,0,0,0,0,0,0,0,0,0,0,0,0,0,0,0,0,0,
0,0,0,0,0,0,0,0,0,0,0,0,0,0,0,0,0,0,0,0,0,0,0,0,0,0,0,0,0,0,0,0,0,0,0,0,0,0,0,0,0,0,0,0,0,0,0,0,0,0,0,0,0,0,0,0,0,0,0,0,0,0,0,0,0,0,0,0,0,0,0,0,0,0,0,0,0,0,0,0,0,0,0,0,0,0,0,0,0,0,0,0,0,0,0,0,0,0,0,0,
0,0,0,0,0,0,0,0,0,0,0,0,0,0,0,0,0,0,0,0,0,0,0,0,0,0,0,0,0,0,0,0,0,0,0,0,0,0,0,0,0,0,0,0,0,0,0,0,0,0,0,0,0,0,0,0,0,0,0,0,0,0,0,0,0,0,0,0,0,0,0,0,0,0,0,0,0,0,0,0,0,0,0,0,0,0,0,0,0,0,0,0,0,0,0,0,0,0,0,0,
0,0,0,0,0,0,0,0,0,0,0,0,0,0,0,0,0,0,0,0,0,0,0,0,0,0,0,0,0,0,0,0,0,0,0,0,0,0,0,0,0,0,0,0,0,0,0,0,0,0,0,0,0,0,0,0,0,0,0,0,0,0,0,0,0,0,0,0,0,0,0,0,0,0,0,0,0,0,0,0,0,0,0,0,0,0,0,0,0,0,0,0,0,0,0,0,0,0,0,0,
0,0,0,0,0,0,0,0,0,0,0,0,0,0,0,0,0,0,0,0,0,0,0,0,0,0,0,0,0,0,0,0,0,0,0,0,0,0,0,0,0,0,0,0,0,0,0,0,0,0,0,0,0,0,0,0,0,0,0,0,0,0,0,0,0,0,0,0,0,0,0,0,0,0,0,0,0,0,0,0,0,0,0,0,0,0,0,0,0,0,0,0,0,0,0,0,0,0,0,0,
0,0,0,0,0,0,0,0,0,0,0,0,0,0,0,0,0,0,0,0,0,0,0,0,0,0,0,0,0,0,0,0,0,0,0,0,0,0,0,0,0,0,0,0,0,0,0,0,0,0,0,0,0,0,0,0,0,0,0,0,0,0,0,0,0,0,0,0,0,0,0,0,0,0,0,0,0,0,0,0,0,0,0,0,0,0,0,0,0,0,0,0,0,0,0,0,0,0,0,0,
0,0,0,0,0,0,0,0,0,0,0,0,0,0,0,0,0,0,0,0,0,0,0,0,0,0,0,0,0,0,0,0,0,0,0,0,0,0,0,0,0,0,0,0,0,0,0,0,0,0,0,0,0,0,0,0,0,0,0,0,0,0,0,0,0,0,0,0,0,0,0,0,0,0,0,0,0,0,0,0,0,0,0,0,0,0,0,0,0,0,0,0,0,0,0,0,0,0,0,0,
0,0,0,0,0,0,0,0,0,0,0,0,0,0,0,0,0,0,0,0,0,0,0,0,0,0,0,0,0,0,0,0,0,0,0,0,0,0,0,0,0,0,0,0,0,0,0,0,0,0,0,0,0,0,0,0,0,0,0,0,0,0,0,0,0,0,0,0,0,0,0,0,0,0,0,0,0,0,0,0,0,0,0,0,0,0,0,0,0,0,0,0,0,0,0,0,0,0,0,0,
0,0,0,0,0,0,0,0,0,0,0,0,0,0,0,0,0,0,0,0,0,0,0,0,0,0,0,0,0,0,0,0,0,0,0,0,0,0,0,0,0,0,0,0,0,0,0,0,0,0,0,0,0,0,0,0,0,0,0,0,0,0,0,0,0,0,0,0,0,0,0,0,0,0,0,0,0,0,0,0,0,0,0,0,0,0,0,0,0,0,0,0,0,0,0,0,0,0,0,0,
0,0,0,0,0,0,0,0,0,0,0,0,0,0,0,0,0,0,0,0,0,0,0,0,0,0,0,0,0,0,0,0,0,0,0,0,0,0,0,0,0,0,0,0,0,0,0,0,0,0,0,0,0,0,0,0,0,0,0,0,0,0,0,0,0,0,0,0,0,0,0,0,0,0,0,0,0,0,0,0,0,0,0,0,0,0,0,0,0,0,0,0,0,0,0,0,0,0,0,0,
0,0,0,0,0,0,0,0,0,0,0,0,0,0,0,0,0,0,0,0,0,0,0,0,0,0,0,0,0,0,0,0,0,0,0,0,0,0,0,0,0,0,0,0,0,0,0,0,0,0,0,0,0,0,0,0,0,0,0,0,0,0,0,0,0,0,0,0,0,0,0,0,0,0,0,0,0,0,0,0,0,0,0,0,0,0,0,0,0,0,0,0,0,0,0,0,0,0,0,0,
0,0,0,0,0,0,0,0,0,0,0,0,0,0,0,0,0,0,0,0,0,0,0,0,0,0,0,0,0,0,0,0,0,0,0,0,0,0,0,0,0,0,0,0,0,0,0,0,0,0,0,0,0,0,0,0,0,0,0,0,0,0,0,0,0,0,0,0,0,0,0,0,0,0,0,0,0,0,0,0,0,0,0,0,0,0,0,0,0,0,0,0,0,0,0,0,0,0,0,0,
0,0,0,0,0,0,0,0,0,0,0,0,0,0,0,0,0,0,0,0,0,0,0,0,0,0,0,0,0,0,0,0,0,0,0,0,0,0,0,0,0,0,0,0,0,0,0,0,0,0,0,0,0,0,0,0,0,0,0,0,0,0,0,0,0,0,0,0,0,0,0,0,0,0,0,0,0,0,0,0,0,0,0,0,0,0,0,0,0,0,0,0,0,0,0,0,0,0,0,0,
0,0,0,0,0,0,0,0,0,0,0,0,0,0,0,0,0,0,0,0,0,0,0,0,0,0,0,0,0,0,0,0,0,0,0,0,0,0,0,0,0,0,0,0,0,0,0,0,0,0,0,0,0,0,0,0,0,0,0,0,0,0,0,0,0,0,0,0,0,0,0,0,0,0,0,0,0,0,0,0,0,0,0,0,0,0,0,0,0,0,0,0,0,0,0,0,0,0,0,0,
0,0,0,0,0,0,0,0,0,0,0,0,0,0,0,0,0,0,0,0,0,0,0,0,0,0,0,0,0,0,0,0,0,0,0,0,0,0,0,0,0,0,0,0,0,0,0,0,0,0,0,0,0,0,0,0,0,0,0,0,0,0,0,0,0,0,0,0,0,0,0,0,0,0,0,0,0,0,0,0,0,0,0,0,0,0,0,0,0,0,0,0,0,0,0,0,0,0,0,0,
0,0,0,0,0,0,0,0,0,0,0,0,0,0,0,0,0,0,0,0,0,0,0,0,0,0,0,0,0,0,0,0,0,0,0,0,0,0,0,0,0,0,0,0,0,0,0,0,0,0,0,0,0,0,0,0,0,0,0,0,0,0,0,0,0,0,0,0,0,0,0,0,0,0,0,0,0,0,0,0,0,0,0,0,0,0,0,0,0,0,0,0,0,0,0,0,0,0,0,0,
0,0,0,0,0,0,0,0,0,0,0,0,0,0,0,0,0,0,0,0,0,0,0,0,0,0,0,0,0,0,0,0,0,0,0,0,0,0,0,0,0,0,0,0,0,0,0,0,0,0,0,0,0,0,0,0,0,0,0,0,0,0,0,0,0,0,0,0,0,0,0,0,0,0,0,0,0,0,0,0,0,0,0,0,0,0,0,0,0,0,0,0,0,0,0,0,0,0,0,0,
0,0,0,0,0,0,0,0,0,0,0,0,0,0,0,0,0,0,0,0,0,0,0,0,0,0,0,0,0,0,0,0,0,0,0,0,0,0,0,0,0,0,0,0,0,0,0,0,0,0,0,0,0,0,0,0,0,0,0,0,0,0,0,0,0,0,0,0,0,0,0,0,0,0,0,0,0,0,0,0,0,0,0,0,0,0,0,0,0,0,0,0,0,0,0,0,0,0,0,0,
0,0,0,0,0,0,0,0,0,0,0,0,0,0,0,0,0,0,0,0,0,0,0,0,0,0,0,0,0,0,0,0,0,0,0,0,0,0,0,0,0,0,0,0,0,0,0,0,0,0,0,0,0,0,0,0,0,0,0,0,0,0,0,0,0,0,0,0,0,0,0,0,0,0,0,0,0,0,0,0,0,0,0,0,0,0,0,0,0,0,0,0,0,0,0,0,0,0,0,0,
0,0,0,0,0,0,0,0,0,0,0,0,0,0,0,0,0,0,0,0,0,0,0,0,0,0,0,0,0,0,0,0,0,0,0,0,0,0,0,0,0,0,0,0,0,0,0,0,0,0,0,0,0,0,0,0,0,0,0,0,0,0,0,0,0,0,0,0,0,0,0,0,0,0,0,0,0,0,0,0,0,0,0,0,0,0,0,0,0,0,0,0,0,0,0,0,0,0,0,0,
0,0,0,0,0,0,0,0,0,0,0,0,0,0,0,0,0,0,0,0,0,0,0,0,0,0,0,0,0,0,0,0,0,0,0,0,0,0,0,0,0,0,0,0,0,0,0,0,0,0,0,0,0,0,0,0,0,0,0,0,0,0,0,0,0,0,0,0,0,0,0,0,0,0,0,0,0,0,0,0,0,0,0,0,0,0,0,0,0,0,0,0,0,0,0,0,0,0,0,0,
0,0,0,0,0,0,0,0,0,0,0,0,0,0,0,0,0,0,0,0,0,0,0,0,0,0,0,0,0,0,0,0,0,0,0,0,0,0,0,0,0,0,0,0,0,0,0,0,0,0,0,0,0,0,0,0,0,0,0,0,0,0,0,0,0,0,0,0,0,0,0,0,0,0,0,0,0,0,0,0,0,0,0,0,0,0,0,0,0,0,0,0,0,0,0,0,0,0,0,0,
0,0,0,0,0,0,0,0,0,0,0,0,0,0,0,0,0,0,0,0,0,0,0,0,0,0,0,0,0,0,0,0,0,0,0,0,0,0,0,0,0,0,0,0,0,0,0,0,0,0,0,0,0,0,0,0,0,0,0,0,0,0,0,0,0,0,0,0,0,0,0,0,0,0,0,0,0,0,0,0,0,0,0,0,0,0,0,0,0,0,0,0,0,0,0,0,0,0,0,0,
0,0,0,0,0,0,0,0,0,0,0,0,0,0,0,0,0,0,0,0,0,0,0,0,0,0,0,0,0,0,0,0,0,0,0,0,0,0,0,0,0,0,0,0,0,0,0,0,0,0,0,0,0,0,0,0,0,0,0,0,0,0,0,0,0,0,0,0,0,0,0,0,0,0,0,0,0,0,0,0,0,0,0,0,0,0,0,0,0,0,0,0,0,0,0,0,0,0,0,0,
0,0,0,0,0,0,0,0,0,0,0,0,0,0,0,0,0,0,0,0,0,0,0,0,0,0,0,0,0,0,0,0,0,0,0,0,0,0,0,0,0,0,0,0,0,0,0,0,0,0,0,0,0,0,0,0,0,0,0,0,0,0,0,0,0,0,0,0,0,0,0,0,0,0,0,0,0,0,0,0,0,0,0,0,0,0,0,0,0,0,0,0,0,0,0,0,0,0,0,0,
0,0,0,0,0,0,0,0,0,0,0,0,0,0,0,0,0,0,0,0,0,0,0,0,0,0,0,0,0,0,0,0,0,0,0,0,0,0,0,0,0,0,0,0,0,0,0,0,0,0,0,0,0,0,0,0,0,0,0,0,0,0,0,0,0,0,0,0,0,0,0,0,0,0,0,0,0,0,0,0,0,0,0,0,0,0,0,0,0,0,0,0,0,0,0,0,0,0,0,0,
0,0,0,0,0,0,0,0,0,0,0,0,0,0,0,0,0,0,0,0,0,0,0,0,0,0,0,0,0,0,0,0,0,0,0,0,0,0,0,0,0,0,0,0,0,0,0,0,0,0,0,0,0,0,0,0,0,0,0,0,0,0,0,0,0,0,0,0,0,0,0,0,0,0,0,0,0,0,0,0,0,0,0,0,0,0,0,0,0,0,0,0,0,0,0,0,0,0,0,0,
0,0,0,0,0,0,0,0,0,0,0,0,0,0,0,0,0,0,0,0,0,0,0,0,0,0,0,0,0,0,0,0,0,0,0,0,0,0,0,0,0,0,0,0,0,0,0,0,0,0,0,0,0,0,0,0,0,0,0,0,0,0,0,0,0,0,0,0,0,0,0,0,0,0,0,0,0,0,0,0,0,0,0,0,0,0,0,0,0,0,0,0,0,0,0,0,0,0,0,0,
0,0,0,0,0,0,0,0,0,0,0,0,0,0,0,0,0,0,0,0,0,0,0,0,0,0,0,0,0,0,0,0,0,0,0,0,0,0,0,0,0,0,0,0,0,0,0,0,0,0,0,0,0,0,0,0,0,0,0,0,0,0,0,0,0,0,0,0,0,0,0,0,0,0,0,0,0,0,0,0,0,0,0,0,0,0,0,0,0,0,0,0,0,0,0,0,0,0,0,0,
0,0,0,0,0,0,0,0,0,0,0,0,0,0,0,0,0,0,0,0,0,0,0,0,0,0,0,0,0,0,0,0,0,0,0,0,0,0,0,0,0,0,0,0,0,0,0,0,0,0,0,0,0,0,0,0,0,0,0,0,0,0,0,0,0,0,0,0,0,0,0,0,0,0,0,0,0,0,0,0,0,0,0,0,0,0,0,0,0,0,0,0,0,0,0,0,0,0,0,0,
0,0,0,0,0,0,0,0,0,0,0,0,0,0,0,0,0,0,0,0,0,0,0,0,0,0,0,0,0,0,0,0,0,0,0,0,0,0,0,0,0,0,0,0,0,0,0,0,0,0,0,0,0,0,0,0,0,0,0,0,0,0,0,0,0,0,0,0,0,0,0,0,0,0,0,0,0,0,0,0,0,0,0,0,0,0,0,0,0,0,0,0,0,0,0,0,0,0,0,0,
0,0,0,0,0,0,0,0,0,0,0,0,0,0,0,0,0,0,0,0,0,0,0,0,0,0,0,0,0,0,0,0,0,0,0,0,0,0,0,0,0,0,0,0,0,0,0,0,0,0,0,0,0,0,0,0,0,0,0,0,0,0,0,0,0,0,0,0,0,0,0,0,0,0,0,0,0,0,0,0,0,0,0,0,0,0,0,0,0,0,0,0,0,0,0,0,0,0,0,0,
0,0,0,0,0,0,0,0,0,0,0,0,0,0,0,0,0,0,0,0,0,0,0,0,0,0,0,0,0,0,0,0,0,0,0,0,0,0,0,0,0,0,0,0,0,0,0,0,0,0,0,0,0,0,0,0,0,0,0,0,0,0,0,0,0,0,0,0,0,0,0,0,0,0,0,0,0,0,0,0,0,0,0,0,0,0,0,0,0,0,0,0,0,0,0,0,0,0,0,0,
0,0,0,0,0,0,0,0,0,0,0,0,0,0,0,0,0,0,0,0,0,0,0,0,0,0,0,0,0,0,0,0,0,0,0,0,0,0,0,0,0,0,0,0,0,0,0,0,0,0,0,0,0,0,0,0,0,0,0,0,0,0,0,0,0,0,0,0,0,0,0,0,0,0,0,0,0,0,0,0,0,0,0,0,0,0,0,0,0,0,0,0,0,0,0,0,0,0,0,0
</data>
 </layer>
 <objectgroup id="3" name="items">
  <object id="2" gid="879" x="352" y="224" width="32" height="32"/>
  <object id="3" gid="879" x="288" y="288" width="32" height="32"/>
  <object id="4" gid="879" x="256" y="224" width="32" height="32"/>
 </objectgroup>
</map>
